azzouzioussama/Robotiques-TP2/011/text_data/joint_positions.csv
timestamp,world_index,world_index_corrected,mico_joint_1_pos,mico_joint_2_pos,mico_joint_3_pos,mico_joint_4_pos,mico_joint_5_pos,mico_joint_6_pos,mico_joint_finger_1_pos,mico_joint_finger_2_pos,mico_joint_1_vel,mico_joint_2_vel,mico_joint_3_vel,mico_joint_4_vel,mico_joint_5_vel,mico_joint_6_vel,mico_joint_finger_1_vel,mico_joint_finger_2_vel,mico_joint_1_eff,mico_joint_2_eff,mico_joint_3_eff,mico_joint_4_eff,mico_joint_5_eff,mico_joint_6_eff,mico_joint_finger_1_eff,mico_joint_finger_2_eff
0.004181680,0,0,-1.212747,-1.346534,-0.560174,-2.247905,0.750888,4.505329,0.947333,0.939556,0.000000,0.000000,0.000000,0.000000,0.000000,0.000000,0.000000,0.000000,0.229099,-6.385801,4.658315,0.606795,0.187329,-0.081978,0.000000,0.000000
0.016107165,0,0,-1.212747,-1.346534,-0.560174,-2.247905,0.750888,4.505329,0.947333,0.939556,0.000000,0.000000,0.000000,0.000000,0.000000,0.000000,0.000000,0.000000,0.569365,-6.309839,4.843127,0.668915,-0.004031,-0.206539,0.000000,0.000000
0.028374574,0,0,-1.212747,-1.346534,-0.560174,-2.247905,0.750888,4.505329,0.947333,0.939556,0.000000,0.000000,0.000000,0.000000,0.000000,0.000000,0.000000,0.000000,0.158463,-6.414532,4.747701,0.629657,-0.045431,-0.048800,0.000000,0.000000
0.041347399,1,1,-1.212747,-1.346534,-0.560174,-2.247905,0.750888,4.505329,0.947333,0.939556,0.000000,0.000000,0.000000,0.000000,0.000000,0.000000,0.000000,0.000000,0.274651,-6.132005,4.528835,0.464742,0.055352,-0.322553,0.000000,0.000000
0.053160105,1,1,-1.212747,-1.346534,-0.560174,-2.247905,0.750888,4.505329,0.947333,0.939556,0.000000,0.000000,0.000000,0.000000,0.000000,0.000000,0.000000,0.000000,0.457999,-6.242330,4.788630,0.692414,0.082428,-0.178603,0.000000,0.000000
0.064971441,2,2,-1.212747,-1.346534,-0.560174,-2.247905,0.750888,4.505329,0.947333,0.939556,0.000000,0.000000,0.000000,0.000000,0.000000,0.000000,0.000000,0.000000,0.494965,-6.462599,5.021221,0.543871,0.147262,-0.197239,0.000000,0.000000
0.077450118,2,2,-1.212747,-1.346534,-0.560174,-2.247905,0.750888,4.505329,0.947333,0.939556,0.000000,0.000000,0.000000,0.000000,0.000000,0.000000,0.000000,0.000000,-0.037699,-6.119396,4.501911,0.519017,0.022365,-0.273882,0.000000,0.000000
0.089243421,2,2,-1.212747,-1.346534,-0.560174,-2.247905,0.750888,4.505329,0.947333,0.939556,0.000000,0.000000,0.000000,0.000000,0.000000,0.000000,0.000000,0.000000,0.410304,-6.032998,4.511667,0.650535,0.171208,-0.158741,0.000000,0.000000
0.101285776,3,3,-1.212747,-1.346534,-0.560174,-2.247905,0.750888,4.505329,0.947333,0.939556,0.000000,0.000000,0.000000,0.000000,0.000000,0.000000,0.000000,0.000000,0.675260,-6.628970,4.494974,0.585746,0.119978,-0.154772,0.000000,0.000000
0.112975121,3,3,-1.212747,-1.346534,-0.560174,-2.247905,0.750888,4.505329,0.947333,0.939556,0.000000,0.000000,0.000000,0.000000,0.000000,0.000000,0.000000,0.000000,0.069792,-5.940946,4.611763,0.549523,0.130878,-0.053754,0.000000,0.000000
0.125079937,3,3,-1.212747,-1.346534,-0.560174,-2.247905,0.750888,4.505329,0.947333,0.939556,0.000000,0.000000,0.000000,0.000000,0.000000,0.000000,0.000000,0.000000,0.254165,-6.045668,4.820876,0.540911,0.111455,-0.050597,0.000000,0.000000
0.137031309,4,4,-1.212747,-1.346534,-0.560174,-2.247905,0.750888,4.505329,0.947333,0.939556,0.000000,0.000000,0.000000,0.000000,0.000000,0.000000,0.000000,0.000000,0.121505,-6.365369,5.174639,0.739989,0.180454,-0.178390,0.000000,0.000000
0.148975766,4,4,-1.212747,-1.346534,-0.560174,-2.247905,0.750888,4.505329,0.947333,0.939556,0.000000,0.000000,0.000000,0.000000,0.000000,0.000000,0.000000,0.000000,0.399035,-6.554755,4.748470,0.431375,0.068208,-0.063622,0.000000,0.000000
0.161422306,5,5,-1.212747,-1.346534,-0.560174,-2.247905,0.750888,4.505329,0.947333,0.939556,0.000000,0.000000,0.000000,0.000000,0.000000,0.000000,0.000000,0.000000,0.204604,-5.792666,5.024466,0.491546,0.052008,-0.088556,0.000000,0.000000
0.173352397,5,5,-1.212747,-1.346534,-0.560174,-2.247905,0.750888,4.505329,0.947333,0.939556,0.000000,0.000000,0.000000,0.000000,0.000000,0.000000,0.000000,0.000000,-0.055843,-6.371201,5.187572,0.612897,0.108533,-0.202597,0.000000,0.000000
0.185121313,5,5,-1.212747,-1.346534,-0.560174,-2.247905,0.750888,4.505329,0.947333,0.939556,0.000000,0.000000,0.000000,0.000000,0.000000,0.000000,0.000000,0.000000,0.595685,-6.444101,4.945684,0.515813,0.062012,-0.309284,0.000000,0.000000
0.197147389,6,6,-1.212747,-1.346534,-0.560174,-2.247905,0.750888,4.505329,0.947333,0.939556,0.000000,0.000000,0.000000,0.000000,0.000000,0.000000,0.000000,0.000000,0.354445,-6.195762,4.656984,0.584150,0.013204,-0.103076,0.000000,0.000000
0.209007581,6,6,-1.212747,-1.346534,-0.560174,-2.247905,0.750888,4.505329,0.947333,0.939556,0.000000,0.000000,0.000000,0.000000,0.000000,0.000000,0.000000,0.000000,0.122673,-6.490766,4.331082,0.614775,0.265320,-0.055305,0.000000,0.000000
0.220871762,6,6,-1.212747,-1.346534,-0.560174,-2.247905,0.750888,4.505329,0.947333,0.939556,0.000000,0.000000,0.000000,0.000000,0.000000,0.000000,0.000000,0.000000,0.647456,-6.352513,4.688161,0.464988,0.162999,-0.133445,0.000000,0.000000
0.233412962,7,7,-1.212747,-1.346534,-0.560174,-2.247905,0.750888,4.505329,0.947333,0.939556,0.000000,0.000000,0.000000,0.000000,0.000000,0.000000,0.000000,0.000000,0.096882,-6.353138,5.337848,0.559896,0.075856,-0.038673,0.000000,0.000000
0.245252612,7,7,-1.212747,-1.346534,-0.560174,-2.247905,0.750888,4.505329,0.947333,0.939556,0.000000,0.000000,0.000000,0.000000,0.000000,0.000000,0.000000,0.000000,0.678662,-6.219744,4.937507,0.607941,0.090440,-0.179547,0.000000,0.000000
0.257049108,7,7,-1.212747,-1.346534,-0.560174,-2.247905,0.750888,4.505329,0.947333,0.939556,0.000000,0.000000,0.000000,0.000000,0.000000,0.000000,0.000000,0.000000,0.228168,-6.081159,4.983662,0.764991,0.234677,-0.193854,0.000000,0.000000
0.269046287,8,8,-1.212747,-1.346534,-0.560174,-2.247905,0.750888,4.505329,0.947333,0.939556,0.000000,0.000000,0.000000,0.000000,0.000000,0.000000,0.000000,0.000000,0.195547,-6.295831,4.707231,0.552812,0.280211,-0.127073,0.000000,0.000000
0.280960645,8,8,-1.212747,-1.346534,-0.560174,-2.247905,0.750888,4.505329,0.947333,0.939556,0.000000,0.000000,0.000000,0.000000,0.000000,0.000000,0.000000,0.000000,0.551072,-6.244135,4.956185,0.702483,0.194142,-0.324210,0.000000,0.000000
0.293430994,8,8,-1.212747,-1.346534,-0.560174,-2.247905,0.750888,4.505329,0.947333,0.939556,0.000000,0.000000,0.000000,0.000000,0.000000,0.000000,0.000000,0.000000,0.264032,-6.328578,4.836473,0.507437,0.037681,-0.116870,0.000000,0.000000
0.305203605,9,9,-1.212747,-1.346534,-0.560174,-2.247905,0.750888,4.505329,0.947333,0.939556,0.000000,0.000000,0.000000,0.000000,0.000000,0.000000,0.000000,0.000000,0.404007,-6.201101,4.739363,0.457775,0.053621,-0.067881,0.000000,0.000000
0.317096752,9,9,-1.212747,-1.346534,-0.560174,-2.247905,0.750888,4.505329,0.947333,0.939556,0.000000,0.000000,0.000000,0.000000,0.000000,0.000000,0.000000,0.000000,0.397657,-6.193125,4.613393,0.676045,-0.057361,-0.103397,0.000000,0.000000
0.328951783,10,10,-1.212747,-1.346534,-0.560174,-2.247905,0.750888,4.505329,0.947333,0.939556,0.000000,0.000000,0.000000,0.000000,0.000000,0.000000,0.000000,0.000000,0.334796,-6.118839,4.688268,0.473821,0.057695,-0.133165,0.000000,0.000000
0.341360397,10,10,-1.212747,-1.346534,-0.560174,-2.247905,0.750888,4.505329,0.947333,0.939556,0.000000,0.000000,0.000000,0.000000,0.000000,0.000000,0.000000,0.000000,0.523815,-6.110952,5.210208,0.391511,0.166885,-0.226037,0.000000,0.000000
0.353213029,10,10,-1.212747,-1.346534,-0.560174,-2.247905,0.750888,4.505329,0.947333,0.939556,0.000000,0.000000,0.000000,0.000000,0.000000,0.000000,0.000000,0.000000,0.408888,-6.448539,5.195831,0.375744,0.085504,-0.189729,0.000000,0.000000
0.365110335,11,11,-1.212747,-1.346534,-0.560174,-2.247905,0.750888,4.505329,0.947333,0.939556,0.000000,0.000000,0.000000,0.000000,0.000000,0.000000,0.000000,0.000000,0.386016,-5.988147,5.184971,0.613346,0.065272,-0.123965,0.000000,0.000000
0.377114931,11,11,-1.212747,-1.346534,-0.560174,-2.247905,0.750888,4.505329,0.947333,0.939556,0.000000,0.000000,0.000000,0.000000,0.000000,0.000000,0.000000,0.000000,0.086046,-6.431952,4.814503,0.677611,0.041992,-0.179353,0.000000,0.000000
0.389140967,11,11,-1.212747,-1.346534,-0.560174,-2.247905,0.750888,4.505329,0.947333,0.939556,0.000000,0.000000,0.000000,0.000000,0.000000,0.000000,0.000000,0.000000,0.056021,-5.814759,4.627382,0.480319,0.060380,-0.099549,0.000000,0.000000
0.401132518,12,12,-1.212747,-1.346534,-0.560174,-2.247905,0.750888,4.505329,0.947333,0.939556,0.000000,0.000000,0.000000,0.000000,0.000000,0.000000,0.000000,0.000000,0.479877,-6.512599,4.735373,0.565273,-0.045094,-0.237840,0.000000,0.000000
0.413087716,12,12,-1.212747,-1.346534,-0.560174,-2.247905,0.750888,4.505329,0.947333,0.939556,0.000000,0.000000,0.000000,0.000000,0.000000,0.000000,0.000000,0.000000,0.148582,-6.355445,4.821625,0.569529,0.043194,-0.304593,0.000000,0.000000
0.425359585,12,12,-1.212747,-1.346534,-0.560174,-2.247905,0.750888,4.505329,0.947333,0.939556,0.000000,0.000000,0.000000,0.000000,0.000000,0.000000,0.000000,0.000000,0.453117,-6.433575,4.643236,0.566598,0.079571,-0.307604,0.000000,0.000000
0.437089075,13,13,-1.212747,-1.346534,-0.560174,-2.247905,0.750888,4.505329,0.947333,0.939556,0.000000,0.000000,0.000000,0.000000,0.000000,0.000000,0.000000,0.000000,0.004209,-5.848789,4.565996,0.622335,0.061765,-0.213981,0.000000,0.000000
0.449113025,13,13,-1.212747,-1.346534,-0.560174,-2.247905,0.750888,4.505329,0.947333,0.939556,0.000000,0.000000,0.000000,0.000000,0.000000,0.000000,0.000000,0.000000,0.315807,-6.313252,4.784688,0.548908,0.165037,-0.109247,0.000000,0.000000
0.460931843,13,13,-1.212747,-1.346534,-0.560174,-2.247905,0.750888,4.505329,0.947333,0.939556,0.000000,0.000000,0.000000,0.000000,0.000000,0.000000,0.000000,0.000000,-0.157220,-6.580982,4.507606,0.607593,-0.036782,-0.162723,0.000000,0.000000
0.473342023,14,14,-1.212747,-1.346534,-0.560174,-2.247905,0.750888,4.505329,0.947333,0.939556,0.000000,0.000000,0.000000,0.000000,0.000000,0.000000,0.000000,0.000000,0.101257,-6.243527,4.506326,0.717490,0.127768,-0.081597,0.000000,0.000000
0.485088407,14,14,-1.212747,-1.346534,-0.560174,-2.247905,0.750888,4.505329,0.947333,0.939556,0.000000,0.000000,0.000000,0.000000,0.000000,0.000000,0.000000,0.000000,0.025427,-5.790592,4.632331,0.665020,0.095255,-0.218037,0.000000,0.000000
0.497090997,15,15,-1.212747,-1.346534,-0.560174,-2.247905,0.750888,4.505329,0.947333,0.939556,0.000000,0.000000,0.000000,0.000000,0.000000,0.000000,0.000000,0.000000,0.331525,-5.923656,4.884221,0.553494,0.079458,-0.115320,0.000000,0.000000
0.508923791,15,15,-1.212747,-1.346534,-0.560174,-2.247905,0.750888,4.505329,0.947333,0.939556,0.000000,0.000000,0.000000,0.000000,0.000000,0.000000,0.000000,0.000000,0.414063,-6.048826,4.970463,0.574533,-0.006086,-0.291199,0.000000,0.000000
0.521176455,15,15,-1.212747,-1.346534,-0.560174,-2.247905,0.750888,4.505329,0.947333,0.939556,0.000000,0.000000,0.000000,0.000000,0.000000,0.000000,0.000000,0.000000,0.285863,-6.279110,4.951653,0.655232,0.150457,-0.356434,0.000000,0.000000
0.533132369,16,16,-1.212747,-1.346534,-0.560174,-2.247905,0.750888,4.505329,0.947333,0.939556,0.000000,0.000000,0.000000,0.000000,0.000000,0.000000,0.000000,0.000000,0.202382,-6.393601,5.075504,0.590207,0.270477,-0.351552,0.000000,0.000000
0.545161228,16,16,-1.212747,-1.346534,-0.560174,-2.247905,0.750888,4.505329,0.947333,0.939556,0.000000,0.000000,0.000000,0.000000,0.000000,0.000000,0.000000,0.000000,0.574107,-6.147330,4.725598,0.788328,0.120292,-0.097673,0.000000,0.000000
0.557089657,16,16,-1.212747,-1.346534,-0.560174,-2.247905,0.750888,4.505329,0.947333,0.939556,0.000000,0.000000,0.000000,0.000000,0.000000,0.000000,0.000000,0.000000,0.264848,-5.963158,4.614130,0.575447,0.231038,-0.097702,0.000000,0.000000
0.568878023,17,17,-1.212747,-1.346534,-0.560174,-2.247905,0.750888,4.505329,0.947333,0.939556,0.000000,0.000000,0.000000,0.000000,0.000000,0.000000,0.000000,0.000000,0.572867,-6.240068,5.172949,0.573579,0.048883,-0.264885,0.000000,0.000000
0.581019770,17,17,-1.212747,-1.346534,-0.560174,-2.247905,0.750888,4.505329,0.947333,0.939556,0.000000,0.000000,0.000000,0.000000,0.000000,0.000000,0.000000,0.000000,0.457099,-6.158066,4.590474,0.392059,0.214002,-0.221885,0.000000,0.000000
0.593381353,17,17,-1.212747,-1.346534,-0.560174,-2.247905,0.750888,4.505329,0.947333,0.939556,0.000000,0.000000,0.000000,0.000000,0.000000,0.000000,0.000000,0.000000,0.359469,-6.616807,4.641498,0.705938,0.195881,-0.300578,0.000000,0.000000
0.605163342,18,18,-1.212747,-1.346534,-0.560174,-2.247905,0.750888,4.505329,0.947333,0.939556,0.000000,0.000000,0.000000,0.000000,0.000000,0.000000,0.000000,0.000000,0.444054,-5.962601,4.527395,0.528148,0.202924,-0.257872,0.000000,0.000000
0.617012450,18,18,-1.212747,-1.346534,-0.560174,-2.247905,0.750888,4.505329,0.947333,0.939556,0.000000,0.000000,0.000000,0.000000,0.000000,0.000000,0.000000,0.000000,0.291453,-6.307020,4.647615,0.556687,0.118095,-0.110748,0.000000,0.000000
0.628981669,18,18,-1.212747,-1.346534,-0.560174,-2.247905,0.750888,4.505329,0.947333,0.939556,0.000000,0.000000,0.000000,0.000000,0.000000,0.000000,0.000000,0.000000,0.052312,-6.070760,5.186565,0.729576,0.101031,-0.213009,0.000000,0.000000
0.640983552,18,19,-1.212747,-1.346534,-0.560174,-2.247905,0.750888,4.505329,0.947333,0.939556,0.000000,0.000000,0.000000,0.000000,0.000000,0.000000,0.000000,0.000000,0.518247,-6.457744,5.209808,0.548532,0.260957,-0.078921,0.000000,0.000000
0.652988824,18,19,-1.212747,-1.346534,-0.560174,-2.247905,0.750888,4.505329,0.947333,0.939556,0.000000,0.000000,0.000000,0.000000,0.000000,0.000000,0.000000,0.000000,0.063550,-6.048457,4.922120,0.606070,0.236704,-0.308552,0.000000,0.000000
0.664912030,18,20,-1.212747,-1.346534,-0.560174,-2.247905,0.750888,4.505329,0.947333,0.939556,0.000000,0.000000,0.000000,0.000000,0.000000,0.000000,0.000000,0.000000,0.255749,-6.270366,5.002565,0.619043,0.198090,-0.310719,0.000000,0.000000
0.677406418,18,20,-1.212747,-1.346534,-0.560174,-2.247905,0.750888,4.505329,0.947333,0.939556,0.000000,0.000000,0.000000,0.000000,0.000000,0.000000,0.000000,0.000000,0.094782,-6.242841,4.825426,0.825476,0.061004,-0.341504,0.000000,0.000000
0.689095594,18,20,-1.212747,-1.346534,-0.560174,-2.247905,0.750888,4.505329,0.947333,0.939556,0.000000,0.000000,0.000000,0.000000,0.000000,0.000000,0.000000,0.000000,0.385813,-6.185383,4.953402,0.474629,0.244372,-0.130341,0.000000,0.000000
0.700989751,18,21,-1.212747,-1.346534,-0.560174,-2.247905,0.750888,4.505329,0.947333,0.939556,0.000000,0.000000,0.000000,0.000000,0.000000,0.000000,0.000000,0.000000,0.105625,-6.123815,4.865106,0.759727,0.206694,-0.090456,0.000000,0.000000
0.713399047,18,21,-1.212747,-1.346534,-0.560174,-2.247905,0.750888,4.505329,0.947333,0.939556,0.000000,0.000000,0.000000,0.000000,0.000000,0.000000,0.000000,0.000000,0.318237,-5.865087,5.203056,0.727057,0.253506,-0.197156,0.000000,0.000000
0.725104663,18,21,-1.212747,-1.346534,-0.560174,-2.247905,0.750888,4.505329,0.947333,0.939556,0.000000,0.000000,0.000000,0.000000,0.000000,0.000000,0.000000,0.000000,0.245411,-6.339612,5.179677,0.604776,0.043708,-0.155143,0.000000,0.000000
0.736967126,18,22,-1.212747,-1.346534,-0.560174,-2.247905,0.750888,4.505329,0.947333,0.939556,0.000000,0.000000,0.000000,0.000000,0.000000,0.000000,0.000000,0.000000,0.552840,-5.739258,5.284089,0.523252,0.147879,-0.233280,0.000000,0.000000
0.749999866,18,22,-1.212747,-1.346534,-0.560174,-2.247905,0.750888,4.505329,0.947333,0.939556,0.000000,0.000000,0.000000,0.000000,0.000000,0.000000,0.000000,0.000000,0.125711,-6.524990,4.895500,0.635897,0.003745,-0.275094,0.000000,0.000000
0.762929212,18,22,-1.212747,-1.346534,-0.560174,-2.247905,0.750888,4.505329,0.947333,0.939556,0.000000,0.000000,0.000000,0.000000,0.000000,0.000000,0.000000,0.000000,0.169811,-6.292247,5.187327,0.689536,0.009967,-0.251899,0.000000,0.000000
0.774170557,18,23,-1.212747,-1.346534,-0.560174,-2.247905,0.750888,4.505329,0.947333,0.939556,0.000000,0.000000,0.000000,0.000000,0.000000,0.000000,0.000000,0.000000,0.245797,-6.150648,4.776406,0.518651,0.023161,-0.048457,0.000000,0.000000
0.785973573,18,23,-1.212747,-1.346534,-0.560174,-2.247905,0.750888,4.505329,0.947333,0.939556,0.000000,0.000000,0.000000,0.000000,0.000000,0.000000,0.000000,0.000000,0.064471,-6.421209,4.898239,0.546018,0.116277,0.032978,0.000000,0.000000
0.797921601,19,24,-1.212747,-1.346534,-0.560174,-2.247905,0.750888,4.505329,0.947333,0.939556,0.000000,0.000000,0.000000,0.000000,0.000000,0.000000,0.000000,0.000000,0.265547,-6.404124,4.981224,0.760588,0.052495,-0.005893,0.000000,0.000000
0.810264147,19,24,-1.212747,-1.346534,-0.560174,-2.247905,0.750888,4.505329,0.947333,0.939556,0.000000,0.000000,0.000000,0.000000,0.000000,0.000000,0.000000,0.000000,0.585121,-6.191341,4.704764,0.531856,0.141413,-0.264501,0.000000,0.000000
0.822127306,19,24,-1.212747,-1.346534,-0.560174,-2.247905,0.750888,4.505329,0.947333,0.939556,0.000000,0.000000,0.000000,0.000000,0.000000,0.000000,0.000000,0.000000,0.451154,-6.413904,4.970696,0.791147,0.226791,-0.273783,0.000000,0.000000
0.833948311,19,25,-1.212747,-1.346534,-0.560174,-2.247905,0.750888,4.505329,0.947333,0.939556,0.000000,0.000000,0.000000,0.000000,0.000000,0.000000,0.000000,0.000000,0.164432,-6.254770,4.824132,0.741138,0.225832,-0.128433,0.000000,0.000000
0.846257887,19,25,-1.212747,-1.346534,-0.560174,-2.247905,0.750888,4.505329,0.947333,0.939556,0.000000,0.000000,0.000000,0.000000,0.000000,0.000000,0.000000,0.000000,0.032632,-5.937287,4.954791,0.446550,0.252653,-0.318043,0.000000,0.000000
0.858151413,19,25,-1.212747,-1.346534,-0.560174,-2.247905,0.750888,4.505329,0.947333,0.939556,0.000000,0.000000,0.000000,0.000000,0.000000,0.000000,0.000000,0.000000,0.326377,-6.274569,4.962232,0.518021,0.044365,-0.082415,0.000000,0.000000
0.870504068,19,26,-1.212747,-1.346534,-0.560174,-2.247905,0.750888,4.505329,0.947333,0.939556,0.000000,0.000000,0.000000,0.000000,0.000000,0.000000,0.000000,0.000000,0.239195,-6.221736,5.127495,0.681587,0.168535,-0.319933,0.000000,0.000000
0.881941393,19,26,-1.212747,-1.346534,-0.560174,-2.247905,0.750888,4.505329,0.947333,0.939556,0.000000,0.000000,0.000000,0.000000,0.000000,0.000000,0.000000,0.000000,0.402927,-6.378850,4.998473,0.669440,0.106457,-0.310395,0.000000,0.000000
0.894496541,19,26,-1.212747,-1.346534,-0.560174,-2.247905,0.750888,4.505329,0.947333,0.939556,0.000000,0.000000,0.000000,0.000000,0.000000,0.000000,0.000000,0.000000,0.373311,-6.267144,5.039470,0.593153,0.045370,-0.196369,0.000000,0.000000
0.906224232,19,27,-1.212747,-1.346534,-0.560174,-2.247905,0.750888,4.505329,0.947333,0.939556,0.000000,0.000000,0.000000,0.000000,0.000000,0.000000,0.000000,0.000000,0.461135,-5.800242,5.116703,0.595903,0.139503,-0.096854,0.000000,0.000000
0.918707632,19,27,-1.212747,-1.346534,-0.560174,-2.247905,0.750888,4.505329,0.947333,0.939556,0.000000,0.000000,0.000000,0.000000,0.000000,0.000000,0.000000,0.000000,0.185880,-6.395411,5.216925,0.520876,-0.047370,-0.150155,0.000000,0.000000
0.930404596,19,27,-1.212747,-1.346534,-0.560174,-2.247905,0.750888,4.505329,0.947333,0.939556,0.000000,0.000000,0.000000,0.000000,0.000000,0.000000,0.000000,0.000000,0.401007,-6.328652,4.695904,0.361614,0.035152,-0.097639,0.000000,0.000000
0.941898751,19,28,-1.212747,-1.346534,-0.560174,-2.247905,0.750888,4.505329,0.947333,0.939556,0.000000,0.000000,0.000000,0.000000,0.000000,0.000000,0.000000,0.000000,0.132895,-6.173359,4.992757,0.743990,0.133801,-0.178160,0.000000,0.000000
0.954716456,19,28,-1.212747,-1.346534,-0.560174,-2.247905,0.750888,4.505329,0.947333,0.939556,0.000000,0.000000,0.000000,0.000000,0.000000,0.000000,0.000000,0.000000,0.389587,-6.466462,5.128139,0.748086,-0.043438,-0.154014,0.000000,0.000000
0.965877432,19,28,-1.212747,-1.346534,-0.560174,-2.247905,0.750888,4.505329,0.947333,0.939556,0.000000,0.000000,0.000000,0.000000,0.000000,0.000000,0.000000,0.000000,0.026504,-6.484483,5.196754,0.440632,0.232958,-0.241390,0.000000,0.000000
0.978219564,20,29,-1.212747,-1.346534,-0.560174,-2.247905,0.750888,4.505329,0.947333,0.939556,0.000000,0.000000,0.000000,0.000000,0.000000,0.000000,0.000000,0.000000,0.052743,-6.134615,5.121780,0.384594,0.183313,-0.180635,0.000000,0.000000
0.990015017,20,29,-1.212747,-1.346534,-0.560174,-2.247905,0.750888,4.505329,0.947333,0.939556,0.000000,0.000000,0.000000,0.000000,0.000000,0.000000,0.000000,0.000000,0.030245,-6.352748,4.718510,0.740308,0.064381,-0.397944,0.000000,0.000000
1.002262182,21,30,-1.212747,-1.346534,-0.560174,-2.247905,0.750888,4.505329,0.947333,0.939556,0.000000,0.000000,0.000000,0.000000,0.000000,0.000000,0.000000,0.000000,0.252806,-6.494755,4.738232,0.691216,0.140673,-0.173231,0.000000,0.000000
1.014036320,21,30,-1.212747,-1.346534,-0.560174,-2.247905,0.750888,4.505329,0.947333,0.939556,0.000000,0.000000,0.000000,0.000000,0.000000,0.000000,0.000000,0.000000,0.160143,-6.083324,4.566335,0.552334,0.206593,-0.194181,0.000000,0.000000
1.026479085,21,30,-1.212747,-1.346534,-0.560174,-2.247905,0.750888,4.505329,0.947333,0.939556,0.000000,0.000000,0.000000,0.000000,0.000000,0.000000,0.000000,0.000000,0.552890,-6.129539,5.042195,0.721160,0.112515,-0.009450,0.000000,0.000000
1.038371312,22,31,-1.212747,-1.346534,-0.560174,-2.247905,0.750888,4.505329,0.947333,0.939556,0.000000,0.000000,0.000000,0.000000,0.000000,0.000000,0.000000,0.000000,0.623261,-6.425375,5.110404,0.499898,0.271261,-0.081556,0.000000,0.000000
1.049969574,22,31,-1.212747,-1.346534,-0.560174,-2.247905,0.750888,4.505329,0.947333,0.939556,0.000000,0.000000,0.000000,0.000000,0.000000,0.000000,0.000000,0.000000,0.542810,-6.419491,4.583454,0.514286,0.237142,-0.243317,0.000000,0.000000
1.062293591,22,31,-1.212747,-1.346534,-0.560174,-2.247905,0.750888,4.505329,0.947333,0.939556,0.000000,0.000000,0.000000,0.000000,0.000000,0.000000,0.000000,0.000000,0.024145,-6.287584,4.937021,0.684337,0.233560,-0.035837,0.000000,0.000000
1.074186703,23,32,-1.212747,-1.346534,-0.560174,-2.247905,0.750888,4.505329,0.947333,0.939556,0.000000,0.000000,0.000000,0.000000,0.000000,0.000000,0.000000,0.000000,0.186910,-6.221457,4.617110,0.666565,-0.007159,-0.054192,0.000000,0.000000
1.086330069,23,32,-1.212747,-1.346534,-0.560174,-2.247905,0.750888,4.505329,0.947333,0.939556,0.000000,0.000000,0.000000,0.000000,0.000000,0.000000,0.000000,0.000000,0.113369,-6.264836,4.502140,0.546838,-0.026113,-0.227179,0.000000,0.000000
1.098075013,23,32,-1.212747,-1.346534,-0.560174,-2.247905,0.750888,4.505329,0.947333,0.939556,0.000000,0.000000,0.000000,0.000000,0.000000,0.000000,0.000000,0.000000,0.636861,-6.446532,4.464448,0.859310,0.091819,-0.201288,0.000000,0.000000
1.109987804,24,33,-1.212747,-1.346534,-0.560174,-2.247905,0.750888,4.505329,0.947333,0.939556,0.000000,0.000000,0.000000,0.000000,0.000000,0.000000,0.000000,0.000000,0.535441,-6.501736,4.510305,0.536857,0.140313,-0.137064,0.000000,0.000000
1.122277139,24,33,-1.212747,-1.346534,-0.560174,-2.247905,0.750888,4.505329,0.947333,0.939556,0.000000,0.000000,0.000000,0.000000,0.000000,0.000000,0.000000,0.000000,0.613065,-6.182137,4.882966,0.390728,0.092418,-0.078514,0.000000,0.000000
1.134144662,25,34,-1.212747,-1.346534,-0.560174,-2.247905,0.750888,4.505329,0.947333,0.939556,0.000000,0.000000,0.000000,0.000000,0.000000,0.000000,0.000000,0.000000,0.229164,-6.199053,5.013369,0.551813,0.028498,-0.057287,0.000000,0.000000
1.145906618,25,34,-1.212747,-1.346534,-0.560174,-2.247905,0.750888,4.505329,0.947333,0.939556,0.000000,0.000000,0.000000,0.000000,0.000000,0.000000,0.000000,0.000000,0.635655,-6.474967,4.940723,0.742877,-0.080099,-0.289916,0.000000,0.000000
1.158555785,25,34,-1.212747,-1.346534,-0.560174,-2.247905,0.750888,4.505329,0.947333,0.939556,0.000000,0.000000,0.000000,0.000000,0.000000,0.000000,0.000000,0.000000,0.514850,-6.010720,5.223191,0.555769,-0.013213,-0.213408,0.000000,0.000000
1.170333613,26,35,-1.212747,-1.346534,-0.560174,-2.247905,0.750888,4.505329,0.947333,0.939556,0.000000,0.000000,0.000000,0.000000,0.000000,0.000000,0.000000,0.000000,0.417295,-6.199677,4.874198,0.343850,0.146524,-0.149581,0.000000,0.000000
1.182477291,26,35,-1.212747,-1.346534,-0.560174,-2.247905,0.750888,4.505329,0.947333,0.939556,0.000000,0.000000,0.000000,0.000000,0.000000,0.000000,0.000000,0.000000,0.479573,-6.490045,4.944368,0.593797,0.265272,0.067492,0.000000,0.000000
1.194956540,26,35,-1.212747,-1.346534,-0.560174,-2.247905,0.750888,4.505329,0.947333,0.939556,0.000000,0.000000,0.000000,0.000000,0.000000,0.000000,0.000000,0.000000,-0.046577,-6.263458,5.087977,0.504171,0.157784,-0.123879,0.000000,0.000000
1.207143122,27,36,-1.212747,-1.346534,-0.560174,-2.247905,0.750888,4.505329,0.947333,0.939556,0.000000,0.000000,0.000000,0.000000,0.000000,0.000000,0.000000,0.000000,0.176648,-6.315301,4.780728,0.440393,0.266542,0.004179,0.000000,0.000000
1.219261471,27,36,-1.212747,-1.346534,-0.560174,-2.247905,0.750888,4.505329,0.947333,0.939556,0.000000,0.000000,0.000000,0.000000,0.000000,0.000000,0.000000,0.000000,0.631207,-6.627624,4.942491,0.609763,0.122772,-0.304926,0.000000,0.000000
1.231091138,27,36,-1.212747,-1.346534,-0.560174,-2.247905,0.750888,4.505329,0.947333,0.939556,0.000000,0.000000,0.000000,0.000000,0.000000,0.000000,0.000000,0.000000,0.411911,-6.489325,4.795592,0.555017,0.212159,-0.188918,0.000000,0.000000
1.243337399,28,37,-1.212747,-1.346534,-0.560174,-2.247905,0.750888,4.505329,0.947333,0.939556,0.000000,0.000000,0.000000,0.000000,0.000000,0.000000,0.000000,0.000000,0.303591,-6.383159,4.873150,0.416355,0.121605,-0.286488,0.000000,0.000000
1.255145311,28,37,-1.212747,-1.346534,-0.560174,-2.247905,0.750888,4.505329,0.947333,0.939556,0.000000,0.000000,0.000000,0.000000,0.000000,0.000000,0.000000,0.000000,0.582135,-6.334415,4.912203,0.616546,0.044397,0.018629,0.000000,0.000000
1.267068795,29,38,-1.212747,-1.346534,-0.560174,-2.247905,0.750888,4.505329,0.947333,0.939556,0.000000,0.000000,0.000000,0.000000,0.000000,0.000000,0.000000,0.000000,0.680062,-6.321447,4.990064,0.729625,0.075082,-0.261446,0.000000,0.000000
1.278960815,29,38,-1.212747,-1.346534,-0.560174,-2.247905,0.750888,4.505329,0.947333,0.939556,0.000000,0.000000,0.000000,0.000000,0.000000,0.000000,0.000000,0.000000,0.282953,-5.904049,4.752309,0.476655,0.235065,-0.113132,0.000000,0.000000
1.291366082,29,38,-1.212747,-1.346534,-0.560174,-2.247905,0.750888,4.505329,0.947333,0.939556,0.000000,0.000000,0.000000,0.000000,0.000000,0.000000,0.000000,0.000000,0.053663,-6.443398,5.018162,0.763733,0.008607,-0.209902,0.000000,0.000000
1.303022967,30,39,-1.212747,-1.346534,-0.560174,-2.247905,0.750888,4.505329,0.947333,0.939556,0.000000,0.000000,0.000000,0.000000,0.000000,0.000000,0.000000,0.000000,-0.016431,-6.362598,4.957755,0.544900,0.099349,-0.228277,0.000000,0.000000
1.317227877,30,39,-1.212747,-1.346534,-0.560174,-2.247905,0.750888,4.505329,0.947333,0.939556,0.000000,0.000000,0.000000,0.000000,0.000000,0.000000,0.000000,0.000000,0.115024,-6.227858,4.836854,0.564205,0.150617,-0.325253,0.000000,0.000000
1.326925086,30,39,-1.212747,-1.346534,-0.560174,-2.247905,0.750888,4.505329,0.947333,0.939556,0.000000,0.000000,0.000000,0.000000,0.000000,0.000000,0.000000,0.000000,0.526916,-6.007059,4.785023,0.487219,0.285364,-0.186993,0.000000,0.000000
1.338902761,31,40,-1.212747,-1.346534,-0.560174,-2.247905,0.750888,4.505329,0.947333,0.939556,0.000000,0.000000,0.000000,0.000000,0.000000,0.000000,0.000000,0.000000,0.760204,-6.415408,5.170298,0.569905,0.014722,-0.280628,0.000000,0.000000
1.351230156,31,40,-1.212747,-1.346534,-0.560174,-2.247905,0.750888,4.505329,0.947333,0.939556,0.000000,0.000000,0.000000,0.000000,0.000000,0.000000,0.000000,0.000000,0.139199,-6.108458,5.380454,0.611560,0.023823,-0.172339,0.000000,0.000000
1.363433968,31,40,-1.212747,-1.346534,-0.560174,-2.247905,0.750888,4.505329,0.947333,0.939556,0.000000,0.000000,0.000000,0.000000,0.000000,0.000000,0.000000,0.000000,0.446758,-6.297535,4.542624,0.369022,0.022956,-0.153005,0.000000,0.000000
1.375381461,32,41,-1.212747,-1.346534,-0.560174,-2.247905,0.750888,4.505329,0.947333,0.939556,0.000000,0.000000,0.000000,0.000000,0.000000,0.000000,0.000000,0.000000,0.385396,-6.192834,4.703253,0.632181,-0.001345,-0.063751,0.000000,0.000000
1.387215149,32,41,-1.212747,-1.346534,-0.560174,-2.247905,0.750888,4.505329,0.947333,0.939556,0.000000,0.000000,0.000000,0.000000,0.000000,0.000000,0.000000,0.000000,0.487610,-5.936847,4.993265,0.738893,0.088886,-0.129619,0.000000,0.000000
1.399061898,32,41,-1.212747,-1.346534,-0.560174,-2.247905,0.750888,4.505329,0.947333,0.939556,0.000000,0.000000,0.000000,0.000000,0.000000,0.000000,0.000000,0.000000,0.081370,-5.905405,4.579189,0.499512,0.036084,0.032259,0.000000,0.000000
1.410932119,33,42,-1.212747,-1.346534,-0.560174,-2.247905,0.750888,4.505329,0.947333,0.939556,0.000000,0.000000,0.000000,0.000000,0.000000,0.000000,0.000000,0.000000,0.497506,-6.530670,4.713755,0.770862,0.030466,-0.166806,0.000000,0.000000
1.423014047,33,42,-1.212747,-1.346534,-0.560174,-2.247905,0.750888,4.505329,0.947333,0.939556,0.000000,0.000000,0.000000,0.000000,0.000000,0.000000,0.000000,0.000000,-0.002634,-6.095518,4.700143,0.585019,0.047264,-0.159282,0.000000,0.000000
1.435376189,34,43,-1.212747,-1.346534,-0.560174,-2.247905,0.750888,4.505329,0.947333,0.939556,0.000000,0.000000,0.000000,0.000000,0.000000,0.000000,0.000000,0.000000,0.513430,-6.075078,4.668215,0.485095,0.034035,-0.030694,0.000000,0.000000
1.447239971,34,43,-1.212747,-1.346534,-0.560174,-2.247905,0.750888,4.505329,0.947333,0.939556,0.000000,0.000000,0.000000,0.000000,0.000000,0.000000,0.000000,0.000000,0.189105,-5.924318,4.811472,0.783769,0.031562,-0.146422,0.000000,0.000000
1.459055543,34,43,-1.212747,-1.346534,-0.560174,-2.247905,0.750888,4.505329,0.947333,0.939556,0.000000,0.000000,0.000000,0.000000,0.000000,0.000000,0.000000,0.000000,0.568278,-6.003094,4.794151,0.711830,0.002579,-0.215621,0.000000,0.000000
1.471233436,35,44,-1.212747,-1.346534,-0.560174,-2.247905,0.750888,4.505329,0.947333,0.939556,0.000000,0.000000,0.000000,0.000000,0.000000,0.000000,0.000000,0.000000,0.551704,-6.282739,4.314251,0.627496,0.199012,-0.268455,0.000000,0.000000
1.483076920,35,44,-1.212747,-1.346534,-0.560174,-2.247905,0.750888,4.505329,0.947333,0.939556,0.000000,0.000000,0.000000,0.000000,0.000000,0.000000,0.000000,0.000000,0.292213,-5.971513,4.439032,0.694999,0.081309,-0.185325,0.000000,0.000000
1.494970339,35,44,-1.212747,-1.346534,-0.560174,-2.247905,0.750888,4.505329,0.947333,0.939556,0.000000,0.000000,0.000000,0.000000,0.000000,0.000000,0.000000,0.000000,0.093886,-6.102829,5.015716,0.523450,0.057605,-0.251259,0.000000,0.000000
1.507253885,36,45,-1.212747,-1.346534,-0.560174,-2.247905,0.750888,4.505329,0.947333,0.939556,0.000000,0.000000,0.000000,0.000000,0.000000,0.000000,0.000000,0.000000,0.154300,-5.872533,5.159822,0.668381,0.139518,-0.293382,0.000000,0.000000
1.519084675,36,45,-1.212747,-1.346534,-0.560174,-2.247905,0.750888,4.505329,0.947333,0.939556,0.000000,0.000000,0.000000,0.000000,0.000000,0.000000,0.000000,0.000000,0.217357,-6.101937,4.999957,0.466458,0.001411,-0.058768,0.000000,0.000000
1.531044375,36,45,-1.212747,-1.346534,-0.560174,-2.247905,0.750888,4.505329,0.947333,0.939556,0.000000,0.000000,0.000000,0.000000,0.000000,0.000000,0.000000,0.000000,0.473021,-6.540875,5.023957,0.711260,-0.089323,-0.127336,0.000000,0.000000
1.543372975,37,46,-1.212747,-1.346534,-0.560174,-2.247905,0.750888,4.505329,0.947333,0.939556,0.000000,0.000000,0.000000,0.000000,0.000000,0.000000,0.000000,0.000000,0.257071,-5.982918,5.122236,0.669074,0.026185,-0.143462,0.000000,0.000000
1.554886689,37,46,-1.212747,-1.346534,-0.560174,-2.247905,0.750888,4.505329,0.947333,0.939556,0.000000,0.000000,0.000000,0.000000,0.000000,0.000000,0.000000,0.000000,0.558275,-6.184931,4.901727,0.460977,0.062587,-0.050572,0.000000,0.000000
1.567352897,37,46,-1.212747,-1.346534,-0.560174,-2.247905,0.750888,4.505329,0.947333,0.939556,0.000000,0.000000,0.000000,0.000000,0.000000,0.000000,0.000000,0.000000,-0.078659,-6.108362,4.773863,0.739573,0.042865,-0.116106,0.000000,0.000000
1.579195589,38,47,-1.212747,-1.346534,-0.560174,-2.247905,0.750888,4.505329,0.947333,0.939556,0.000000,0.000000,0.000000,0.000000,0.000000,0.000000,0.000000,0.000000,-0.018583,-6.086252,5.029100,0.503970,0.115617,-0.317150,0.000000,0.000000
1.590938130,38,47,-1.212747,-1.346534,-0.560174,-2.247905,0.750888,4.505329,0.947333,0.939556,0.000000,0.000000,0.000000,0.000000,0.000000,0.000000,0.000000,0.000000,0.387982,-6.110291,4.811950,0.572739,0.161907,-0.203434,0.000000,0.000000
1.603331558,38,47,-1.212747,-1.346534,-0.560174,-2.247905,0.750888,4.505329,0.947333,0.939556,0.000000,0.000000,0.000000,0.000000,0.000000,0.000000,0.000000,0.000000,0.283064,-5.939178,4.837844,0.650095,0.198898,-0.063076,0.000000,0.000000
1.615230428,39,48,-1.212747,-1.346534,-0.560174,-2.247905,0.750888,4.505329,0.947333,0.939556,0.000000,0.000000,0.000000,0.000000,0.000000,0.000000,0.000000,0.000000,0.678576,-6.090256,5.110195,0.700605,0.146333,-0.149676,0.000000,0.000000
1.628032312,39,48,-1.212747,-1.346534,-0.560174,-2.247905,0.750888,4.505329,0.947333,0.939556,0.000000,0.000000,0.000000,0.000000,0.000000,0.000000,0.000000,0.000000,0.079575,-5.952704,4.604163,0.595218,0.270471,-0.120203,0.000000,0.000000
1.640421229,39,48,-1.212747,-1.346534,-0.560174,-2.247905,0.750888,4.505329,0.947333,0.939556,0.000000,0.000000,0.000000,0.000000,0.000000,0.000000,0.000000,0.000000,0.611144,-6.271914,5.086386,0.694526,-0.080483,-0.072505,0.000000,0.000000
1.652284699,40,49,-1.212747,-1.346534,-0.560174,-2.247905,0.750888,4.505329,0.947333,0.939556,0.000000,0.000000,0.000000,0.000000,0.000000,0.000000,0.000000,0.000000,0.337919,-6.044093,5.070705,0.720000,0.142012,0.055734,0.000000,0.000000
1.664052430,40,49,-1.212747,-1.346534,-0.560174,-2.247905,0.750888,4.505329,0.947333,0.939556,0.000000,0.000000,0.000000,0.000000,0.000000,0.000000,0.000000,0.000000,0.087581,-6.273154,4.536261,0.880126,0.100523,-0.067603,0.000000,0.000000
1.675950675,41,50,-1.212747,-1.346534,-0.560174,-2.247905,0.750888,4.505329,0.947333,0.939556,0.000000,0.000000,0.000000,0.000000,0.000000,0.000000,0.000000,0.000000,0.048573,-6.152660,4.875677,0.495259,0.218869,-0.245197,0.000000,0.000000
1.688327833,41,50,-1.212747,-1.346534,-0.560174,-2.247905,0.750888,4.505329,0.947333,0.939556,0.000000,0.000000,0.000000,0.000000,0.000000,0.000000,0.000000,0.000000,0.605313,-6.147468,4.918265,0.497816,0.295444,-0.201420,0.000000,0.000000
1.700023013,41,50,-1.212747,-1.346534,-0.560174,-2.247905,0.750888,4.505329,0.947333,0.939556,0.000000,0.000000,0.000000,0.000000,0.000000,0.000000,0.000000,0.000000,0.406416,-6.043406,4.721397,0.494872,0.179600,-0.180579,0.000000,0.000000
1.711906367,42,51,-1.212747,-1.346534,-0.560174,-2.247905,0.750888,4.505329,0.947333,0.939556,0.000000,0.000000,0.000000,0.000000,0.000000,0.000000,0.000000,0.000000,-0.229640,-6.145338,4.606559,0.748011,-0.014057,-0.170962,0.000000,0.000000
1.724370049,42,51,-1.212747,-1.346534,-0.560174,-2.247905,0.750888,4.505329,0.947333,0.939556,0.000000,0.000000,0.000000,0.000000,0.000000,0.000000,0.000000,0.000000,0.636522,-6.188888,4.527105,0.633737,0.078967,-0.154893,0.000000,0.000000
1.736041488,42,51,-1.212747,-1.346534,-0.560174,-2.247905,0.750888,4.505329,0.947333,0.939556,0.000000,0.000000,0.000000,0.000000,0.000000,0.000000,0.000000,0.000000,0.294684,-6.309019,4.569408,0.752153,0.072217,-0.125599,0.000000,0.000000
1.747953549,43,52,-1.212747,-1.346534,-0.560174,-2.247905,0.750888,4.505329,0.947333,0.939556,0.000000,0.000000,0.000000,0.000000,0.000000,0.000000,0.000000,0.000000,0.596420,-6.577304,4.951261,0.490731,0.152994,-0.294150,0.000000,0.000000
1.760391453,43,52,-1.212747,-1.346534,-0.560174,-2.247905,0.750888,4.505329,0.947333,0.939556,0.000000,0.000000,0.000000,0.000000,0.000000,0.000000,0.000000,0.000000,0.490354,-6.340694,5.161089,0.597811,0.120825,-0.269312,0.000000,0.000000
1.772736788,44,53,-1.212747,-1.346534,-0.560174,-2.247905,0.750888,4.505329,0.947333,0.939556,0.000000,0.000000,0.000000,0.000000,0.000000,0.000000,0.000000,0.000000,0.447891,-6.330958,5.318003,0.475122,0.121955,-0.297957,0.000000,0.000000
1.785024748,44,53,-1.212747,-1.346534,-0.560174,-2.247905,0.750888,4.505329,0.947333,0.939556,0.000000,0.000000,0.000000,0.000000,0.000000,0.000000,0.000000,0.000000,0.047594,-6.225800,4.792805,0.551838,0.256931,-0.394834,0.000000,0.000000
1.797455350,44,53,-1.212747,-1.346534,-0.560174,-2.247905,0.750888,4.505329,0.947333,0.939556,0.000000,0.000000,0.000000,0.000000,0.000000,0.000000,0.000000,0.000000,0.354972,-6.401525,4.984019,0.383349,0.200739,-0.233628,0.000000,0.000000
1.809272966,45,54,-1.212747,-1.346534,-0.560174,-2.247905,0.750888,4.505329,0.947333,0.939556,0.000000,0.000000,0.000000,0.000000,0.000000,0.000000,0.000000,0.000000,0.207932,-6.343400,5.040151,0.609966,0.260788,-0.097881,0.000000,0.000000
1.821033138,45,54,-1.212747,-1.346534,-0.560174,-2.247905,0.750888,4.505329,0.947333,0.939556,0.000000,0.000000,0.000000,0.000000,0.000000,0.000000,0.000000,0.000000,0.566833,-5.948649,4.884238,0.489636,0.225430,-0.262340,0.000000,0.000000
1.833524459,45,54,-1.212747,-1.346534,-0.560174,-2.247905,0.750888,4.505329,0.947333,0.939556,0.000000,0.000000,0.000000,0.000000,0.000000,0.000000,0.000000,0.000000,0.448096,-6.278247,4.868952,0.661806,0.265676,-0.284561,0.000000,0.000000
1.845260113,46,55,-1.212747,-1.346534,-0.560174,-2.247905,0.750888,4.505329,0.947333,0.939556,0.000000,0.000000,0.000000,0.000000,0.000000,0.000000,0.000000,0.000000,0.552907,-6.382704,4.715431,0.592807,-0.046753,-0.187732,0.000000,0.000000
1.857165436,46,55,-1.212747,-1.346534,-0.560174,-2.247905,0.750888,4.505329,0.947333,0.939556,0.000000,0.000000,0.000000,0.000000,0.000000,0.000000,0.000000,0.000000,0.071519,-6.450956,4.916209,0.656943,0.065854,-0.277817,0.000000,0.000000
1.868901021,46,55,-1.212747,-1.346534,-0.560174,-2.247905,0.750888,4.505329,0.947333,0.939556,0.000000,0.000000,0.000000,0.000000,0.000000,0.000000,0.000000,0.000000,0.293591,-6.536388,4.608033,0.723676,-0.032618,-0.024112,0.000000,0.000000
1.881483461,47,56,-1.212747,-1.346534,-0.560174,-2.247905,0.750888,4.505329,0.947333,0.939556,0.000000,0.000000,0.000000,0.000000,0.000000,0.000000,0.000000,0.000000,0.495723,-6.456171,4.973371,0.663048,0.059573,-0.155476,0.000000,0.000000
1.893260354,47,56,-1.212747,-1.346534,-0.560174,-2.247905,0.750888,4.505329,0.947333,0.939556,0.000000,0.000000,0.000000,0.000000,0.000000,0.000000,0.000000,0.000000,0.220716,-6.032870,4.874078,0.533236,0.067600,-0.150768,0.000000,0.000000
1.905162256,48,57,-1.212747,-1.346534,-0.560174,-2.247905,0.750888,4.505329,0.947333,0.939556,0.000000,0.000000,0.000000,0.000000,0.000000,0.000000,0.000000,0.000000,0.624399,-6.411596,4.918891,0.499939,0.064105,-0.234665,0.000000,0.000000
1.916876595,48,57,-1.212747,-1.346534,-0.560174,-2.247905,0.750888,4.505329,0.947333,0.939556,0.000000,0.000000,0.000000,0.000000,0.000000,0.000000,0.000000,0.000000,0.392056,-6.150260,4.647491,0.758226,0.084845,-0.189240,0.000000,0.000000
1.929316168,48,57,-1.212747,-1.346534,-0.560174,-2.247905,0.750888,4.505329,0.947333,0.939556,0.000000,0.000000,0.000000,0.000000,0.000000,0.000000,0.000000,0.000000,0.169789,-6.373611,5.080594,0.529976,0.173263,-0.249650,0.000000,0.000000
1.941120981,49,58,-1.212747,-1.346534,-0.560174,-2.247905,0.750888,4.505329,0.947333,0.939556,0.000000,0.000000,0.000000,0.000000,0.000000,0.000000,0.000000,0.000000,0.316324,-6.393810,4.820073,0.498922,-0.004320,0.026779,0.000000,0.000000
1.953382402,49,58,-1.212747,-1.346534,-0.560174,-2.247905,0.750888,4.505329,0.947333,0.939556,0.000000,0.000000,0.000000,0.000000,0.000000,0.000000,0.000000,0.000000,0.707720,-5.955921,4.869140,0.828461,-0.015821,-0.071966,0.000000,0.000000
1.965269982,49,58,-1.212747,-1.346534,-0.560174,-2.247905,0.750888,4.505329,0.947333,0.939556,0.000000,0.000000,0.000000,0.000000,0.000000,0.000000,0.000000,0.000000,-0.148632,-6.695151,4.833236,0.536616,0.184983,-0.153130,0.000000,0.000000
1.977102113,50,59,-1.212747,-1.346534,-0.560174,-2.247905,0.750888,4.505329,0.947333,0.939556,0.000000,0.000000,0.000000,0.000000,0.000000,0.000000,0.000000,0.000000,0.112512,-6.555385,4.920365,0.487022,0.198919,-0.379856,0.000000,0.000000
1.989411630,50,59,-1.212747,-1.346534,-0.560174,-2.247905,0.750888,4.505329,0.947333,0.939556,0.000000,0.000000,0.000000,0.000000,0.000000,0.000000,0.000000,0.000000,0.679796,-5.916283,5.012618,0.567897,0.093765,-0.098242,0.000000,0.000000
2.001201524,50,59,-1.212747,-1.346534,-0.560174,-2.247905,0.750888,4.505329,0.947333,0.939556,0.000000,0.000000,0.000000,0.000000,0.000000,0.000000,0.000000,0.000000,-0.075490,-6.252763,5.132700,0.735163,0.158985,-0.149876,0.000000,0.000000
2.013028857,51,60,-1.212747,-1.346534,-0.560174,-2.247905,0.750888,4.505329,0.947333,0.939556,0.000000,0.000000,0.000000,0.000000,0.000000,0.000000,0.000000,0.000000,0.529763,-6.055348,4.943482,0.582162,0.025825,-0.007296,0.000000,0.000000
2.028398082,51,60,-1.212747,-1.346534,-0.560174,-2.247905,0.750888,4.505329,0.947333,0.939556,0.000000,0.000000,0.000000,0.000000,0.000000,0.000000,0.000000,0.000000,0.229086,-6.282664,5.121148,0.529944,0.057822,-0.112562,0.000000,0.000000
2.044070922,52,61,-1.212747,-1.346534,-0.560174,-2.247905,0.750888,4.505329,0.947333,0.939556,0.000000,0.000000,0.000000,0.000000,0.000000,0.000000,0.000000,0.000000,0.240609,-6.374506,4.937320,0.713225,0.182705,-0.162826,0.000000,0.000000
2.052463188,52,61,-1.212747,-1.346534,-0.560174,-2.247905,0.750888,4.505329,0.947333,0.939556,0.000000,0.000000,0.000000,0.000000,0.000000,0.000000,0.000000,0.000000,0.497654,-6.258022,4.747789,0.564370,0.160932,-0.286352,0.000000,0.000000
2.064564019,52,61,-1.212747,-1.346534,-0.560174,-2.247905,0.750888,4.505329,0.947333,0.939556,0.000000,0.000000,0.000000,0.000000,0.000000,0.000000,0.000000,0.000000,0.210656,-6.025207,4.898587,0.669154,-0.018726,-0.232466,0.000000,0.000000
2.076046651,53,62,-1.212747,-1.346534,-0.560174,-2.247905,0.750888,4.505329,0.947333,0.939556,0.000000,0.000000,0.000000,0.000000,0.000000,0.000000,0.000000,0.000000,0.557965,-6.165335,4.777390,0.509833,0.031511,-0.088056,0.000000,0.000000
2.088546659,53,62,-1.212747,-1.346534,-0.560174,-2.247905,0.750888,4.505329,0.947333,0.939556,0.000000,0.000000,0.000000,0.000000,0.000000,0.000000,0.000000,0.000000,0.530257,-6.197904,5.149746,0.554073,0.047158,-0.082857,0.000000,0.000000
2.100203302,53,62,-1.212747,-1.346534,-0.560174,-2.247905,0.750888,4.505329,0.947333,0.939556,0.000000,0.000000,0.000000,0.000000,0.000000,0.000000,0.000000,0.000000,0.238967,-6.607568,5.136823,0.667909,0.137760,-0.115999,0.000000,0.000000
2.111896226,54,63,-1.212747,-1.346534,-0.560174,-2.247905,0.750888,4.505329,0.947333,0.939556,0.000000,0.000000,0.000000,0.000000,0.000000,0.000000,0.000000,0.000000,0.437992,-5.687071,4.812057,0.721946,0.011685,-0.282526,0.000000,0.000000
2.124320132,54,63,-1.212747,-1.346534,-0.560174,-2.247905,0.750888,4.505329,0.947333,0.939556,0.000000,0.000000,0.000000,0.000000,0.000000,0.000000,0.000000,0.000000,0.541915,-6.506014,4.774403,0.663613,0.300878,-0.300583,0.000000,0.000000
2.136831607,54,63,-1.212747,-1.346534,-0.560174,-2.247905,0.750888,4.505329,0.947333,0.939556,0.000000,0.000000,0.000000,0.000000,0.000000,0.000000,0.000000,0.000000,0.457464,-6.407748,4.422077,0.496510,0.180806,-0.259481,0.000000,0.000000
2.148160347,55,64,-1.212747,-1.346534,-0.560174,-2.247905,0.750888,4.505329,0.947333,0.939556,0.000000,0.000000,0.000000,0.000000,0.000000,0.000000,0.000000,0.000000,0.422587,-6.181286,4.677409,0.406650,0.121630,-0.177039,0.000000,0.000000
2.160096389,55,64,-1.212747,-1.346534,-0.560174,-2.247905,0.750888,4.505329,0.947333,0.939556,0.000000,0.000000,0.000000,0.000000,0.000000,0.000000,0.000000,0.000000,0.441037,-5.946433,4.891168,0.481371,0.302093,0.013812,0.000000,0.000000
2.176032019,56,65,-1.212747,-1.346534,-0.560174,-2.247905,0.750888,4.505329,0.947333,0.939556,0.000000,0.000000,0.000000,0.000000,0.000000,0.000000,0.000000,0.000000,0.385122,-6.021358,4.841076,0.567302,0.208230,-0.117594,0.000000,0.000000
2.183847327,56,65,-1.212747,-1.346534,-0.560174,-2.247905,0.750888,4.505329,0.947333,0.939556,0.000000,0.000000,0.000000,0.000000,0.000000,0.000000,0.000000,0.000000,0.556288,-6.075139,4.882783,0.555544,0.025271,-0.274194,0.000000,0.000000
2.195954934,56,65,-1.212747,-1.346534,-0.560174,-2.247905,0.750888,4.505329,0.947333,0.939556,0.000000,0.000000,0.000000,0.000000,0.000000,0.000000,0.000000,0.000000,0.691936,-6.490173,5.030907,0.744968,0.072273,-0.170276,0.000000,0.000000
2.208497509,57,66,-1.212747,-1.346534,-0.560174,-2.247905,0.750888,4.505329,0.947333,0.939556,0.000000,0.000000,0.000000,0.000000,0.000000,0.000000,0.000000,0.000000,0.099176,-6.236090,5.125902,0.460374,0.155953,-0.147390,0.000000,0.000000
2.220177545,57,66,-1.212747,-1.346534,-0.560174,-2.247905,0.750888,4.505329,0.947333,0.939556,0.000000,0.000000,0.000000,0.000000,0.000000,0.000000,0.000000,0.000000,0.580334,-6.007165,4.755162,0.592723,0.152472,-0.049379,0.000000,0.000000
2.231987738,57,66,-1.212747,-1.346534,-0.560174,-2.247905,0.750888,4.505329,0.947333,0.939556,0.000000,0.000000,0.000000,0.000000,0.000000,0.000000,0.000000,0.000000,0.498122,-6.638827,4.849273,0.539151,0.129375,-0.056758,0.000000,0.000000
2.244530657,58,67,-1.212747,-1.346534,-0.560174,-2.247905,0.750888,4.505329,0.947333,0.939556,0.000000,0.000000,0.000000,0.000000,0.000000,0.000000,0.000000,0.000000,-0.028701,-6.279685,4.573882,0.633251,0.230555,-0.071438,0.000000,0.000000
2.256135635,58,67,-1.212747,-1.346534,-0.560174,-2.247905,0.750888,4.505329,0.947333,0.939556,0.000000,0.000000,0.000000,0.000000,0.000000,0.000000,0.000000,0.000000,0.187383,-6.512039,4.628996,0.506467,0.148115,-0.154741,0.000000,0.000000
2.269153363,58,67,-1.212747,-1.346534,-0.560174,-2.247905,0.750888,4.505329,0.947333,0.939556,0.000000,0.000000,0.000000,0.000000,0.000000,0.000000,0.000000,0.000000,0.420869,-6.049394,5.283933,0.668481,-0.055737,-0.165879,0.000000,0.000000
2.280282338,59,68,-1.212747,-1.346534,-0.560174,-2.247905,0.750888,4.505329,0.947333,0.939556,0.000000,0.000000,0.000000,0.000000,0.000000,0.000000,0.000000,0.000000,0.042615,-6.094715,4.415615,0.641313,0.094187,-0.126118,0.000000,0.000000
2.292824610,59,68,-1.212747,-1.346534,-0.560174,-2.247905,0.750888,4.505329,0.947333,0.939556,0.000000,0.000000,0.000000,0.000000,0.000000,0.000000,0.000000,0.000000,0.297277,-6.133984,4.428280,0.708776,0.058660,-0.079503,0.000000,0.000000
2.304390784,59,68,-1.212747,-1.346534,-0.560174,-2.247905,0.750888,4.505329,0.947333,0.939556,0.000000,0.000000,0.000000,0.000000,0.000000,0.000000,0.000000,0.000000,0.488060,-6.101846,4.878089,0.691751,0.043134,-0.058956,0.000000,0.000000
2.316015435,60,69,-1.212747,-1.346534,-0.560174,-2.247905,0.750888,4.505329,0.947333,0.939556,0.000000,0.000000,0.000000,0.000000,0.000000,0.000000,0.000000,0.000000,0.225729,-6.351370,4.923056,0.577380,0.079899,-0.265133,0.000000,0.000000
2.328404276,60,69,-1.212747,-1.346534,-0.560174,-2.247905,0.750888,4.505329,0.947333,0.939556,0.000000,0.000000,0.000000,0.000000,0.000000,0.000000,0.000000,0.000000,-0.081627,-6.229366,4.728472,0.494003,0.083824,-0.068415,0.000000,0.000000
2.340213487,60,69,-1.212747,-1.346534,-0.560174,-2.247905,0.750888,4.505329,0.947333,0.939556,0.000000,0.000000,0.000000,0.000000,0.000000,0.000000,0.000000,0.000000,0.514120,-5.653552,4.452952,0.786011,0.083811,-0.278811,0.000000,0.000000
2.352186739,61,70,-1.212747,-1.346534,-0.560174,-2.247905,0.750888,4.505329,0.947333,0.939556,0.000000,0.000000,0.000000,0.000000,0.000000,0.000000,0.000000,0.000000,-0.178721,-6.409334,4.739621,0.511075,0.179719,-0.199730,0.000000,0.000000
2.365043452,61,70,-1.212747,-1.346534,-0.560174,-2.247905,0.750888,4.505329,0.947333,0.939556,0.000000,0.000000,0.000000,0.000000,0.000000,0.000000,0.000000,0.000000,0.375122,-6.698762,4.833615,0.447113,0.134712,-0.175538,0.000000,0.000000
2.376907464,62,71,-1.212747,-1.346534,-0.560174,-2.247905,0.750888,4.505329,0.947333,0.939556,0.000000,0.000000,0.000000,0.000000,0.000000,0.000000,0.000000,0.000000,0.609861,-5.864258,4.973973,0.597167,0.067674,-0.049048,0.000000,0.000000
2.389175381,62,71,-1.212747,-1.346534,-0.560174,-2.247905,0.750888,4.505329,0.947333,0.939556,0.000000,0.000000,0.000000,0.000000,0.000000,0.000000,0.000000,0.000000,0.446098,-6.226013,5.327302,0.532404,0.197208,-0.208542,0.000000,0.000000
2.401082158,62,71,-1.212747,-1.346534,-0.560174,-2.247905,0.750888,4.505329,0.947333,0.939556,0.000000,0.000000,0.000000,0.000000,0.000000,0.000000,0.000000,0.000000,0.316195,-6.282075,5.054168,0.563180,0.109223,-0.296062,0.000000,0.000000
2.412880224,63,72,-1.212747,-1.346534,-0.560174,-2.247905,0.750888,4.505329,0.947333,0.939556,0.000000,0.000000,0.000000,0.000000,0.000000,0.000000,0.000000,0.000000,0.281401,-6.228290,5.062099,0.605126,0.144766,0.123028,0.000000,0.000000
2.425882984,63,72,-1.212747,-1.346534,-0.560174,-2.247905,0.750888,4.505329,0.947333,0.939556,0.000000,0.000000,0.000000,0.000000,0.000000,0.000000,0.000000,0.000000,0.208989,-6.389493,4.947324,0.710773,0.059309,-0.075150,0.000000,0.000000
2.437035708,63,72,-1.212747,-1.346534,-0.560174,-2.247905,0.750888,4.505329,0.947333,0.939556,0.000000,0.000000,0.000000,0.000000,0.000000,0.000000,0.000000,0.000000,0.374710,-6.085120,5.043954,0.527530,0.033885,-0.163800,0.000000,0.000000
2.449049893,64,73,-1.212747,-1.346534,-0.560174,-2.247905,0.750888,4.505329,0.947333,0.939556,0.000000,0.000000,0.000000,0.000000,0.000000,0.000000,0.000000,0.000000,0.525407,-5.900842,5.130629,0.596120,0.023397,-0.292371,0.000000,0.000000
2.460916736,64,73,-1.212747,-1.346534,-0.560174,-2.247905,0.750888,4.505329,0.947333,0.939556,0.000000,0.000000,0.000000,0.000000,0.000000,0.000000,0.000000,0.000000,0.441569,-6.301011,5.030396,0.596918,0.157876,-0.138341,0.000000,0.000000
2.473365298,65,74,-1.212747,-1.346534,-0.560174,-2.247905,0.750888,4.505329,0.947333,0.939556,0.000000,0.000000,0.000000,0.000000,0.000000,0.000000,0.000000,0.000000,0.020472,-5.972807,5.095120,0.505868,0.166216,-0.317388,0.000000,0.000000
2.486190744,65,74,-1.212747,-1.346534,-0.560174,-2.247905,0.750888,4.505329,0.947333,0.939556,0.000000,0.000000,0.000000,0.000000,0.000000,0.000000,0.000000,0.000000,0.386962,-6.114741,4.780733,0.581373,0.139405,0.005101,0.000000,0.000000
2.497943216,65,74,-1.212747,-1.346534,-0.560174,-2.247905,0.750888,4.505329,0.947333,0.939556,0.000000,0.000000,0.000000,0.000000,0.000000,0.000000,0.000000,0.000000,0.524923,-6.568886,4.791651,0.637578,0.102379,-0.070763,0.000000,0.000000
2.510442805,66,75,-1.212747,-1.346534,-0.560174,-2.247905,0.750888,4.505329,0.947333,0.939556,0.000000,0.000000,0.000000,0.000000,0.000000,0.000000,0.000000,0.000000,0.397925,-6.367442,4.474676,0.633256,0.235515,-0.221580,0.000000,0.000000
2.522224603,66,75,-1.212747,-1.346534,-0.560174,-2.247905,0.750888,4.505329,0.947333,0.939556,0.000000,0.000000,0.000000,0.000000,0.000000,0.000000,0.000000,0.000000,0.355050,-5.993523,4.458360,0.514085,0.108604,-0.356532,0.000000,0.000000
2.535541231,66,75,-1.212747,-1.346534,-0.560174,-2.247905,0.750888,4.505329,0.947333,0.939556,0.000000,0.000000,0.000000,0.000000,0.000000,0.000000,0.000000,0.000000,0.265692,-6.444871,5.127491,0.660416,0.112147,-0.278651,0.000000,0.000000
2.546978849,67,76,-1.212747,-1.346534,-0.560174,-2.247905,0.750888,4.505329,0.947333,0.939556,0.000000,0.000000,0.000000,0.000000,0.000000,0.000000,0.000000,0.000000,0.049407,-6.093662,5.145667,0.791161,0.099780,-0.050258,0.000000,0.000000
2.558967665,67,76,-1.212747,-1.346534,-0.560174,-2.247905,0.750888,4.505329,0.947333,0.939556,0.000000,0.000000,0.000000,0.000000,0.000000,0.000000,0.000000,0.000000,0.584601,-5.749585,4.870481,0.605181,0.218660,-0.152697,0.000000,0.000000
2.571369635,67,76,-1.212747,-1.346534,-0.560174,-2.247905,0.750888,4.505329,0.947333,0.939556,0.000000,0.000000,0.000000,0.000000,0.000000,0.000000,0.000000,0.000000,0.464387,-6.023817,4.890886,0.674950,0.195118,-0.318735,0.000000,0.000000
2.583166187,68,77,-1.212747,-1.346534,-0.560174,-2.247905,0.750888,4.505329,0.947333,0.939556,0.000000,0.000000,0.000000,0.000000,0.000000,0.000000,0.000000,0.000000,0.025384,-6.367128,4.634475,0.747848,0.137462,-0.193711,0.000000,0.000000
2.595030279,68,77,-1.212747,-1.346534,-0.560174,-2.247905,0.750888,4.505329,0.947333,0.939556,0.000000,0.000000,0.000000,0.000000,0.000000,0.000000,0.000000,0.000000,0.587955,-5.860508,5.361893,0.455750,0.117813,-0.293216,0.000000,0.000000
2.609112329,69,78,-1.212747,-1.346534,-0.560174,-2.247905,0.750888,4.505329,0.947333,0.939556,0.000000,0.000000,0.000000,0.000000,0.000000,0.000000,0.000000,0.000000,0.436204,-6.432456,5.201786,0.482039,0.123320,-0.036772,0.000000,0.000000
2.621372894,69,78,-1.212747,-1.346534,-0.560174,-2.247905,0.750888,4.505329,0.947333,0.939556,0.000000,0.000000,0.000000,0.000000,0.000000,0.000000,0.000000,0.000000,0.269806,-6.419110,5.154852,0.647761,0.161787,-0.185814,0.000000,0.000000
2.633104755,69,78,-1.212747,-1.346534,-0.560174,-2.247905,0.750888,4.505329,0.947333,0.939556,0.000000,0.000000,0.000000,0.000000,0.000000,0.000000,0.000000,0.000000,0.703697,-6.070835,4.476942,0.488601,0.147558,-0.421227,0.000000,0.000000
2.645147516,70,79,-1.212747,-1.346534,-0.560174,-2.247905,0.750888,4.505329,0.947333,0.939556,0.000000,0.000000,0.000000,0.000000,0.000000,0.000000,0.000000,0.000000,0.261271,-5.802452,4.658538,0.605843,0.202768,-0.139857,0.000000,0.000000
2.656999240,70,79,-1.212747,-1.346534,-0.560174,-2.247905,0.750888,4.505329,0.947333,0.939556,0.000000,0.000000,0.000000,0.000000,0.000000,0.000000,0.000000,0.000000,0.329373,-6.236055,4.852077,0.758387,0.177483,-0.252490,0.000000,0.000000
2.669287396,70,79,-1.212747,-1.346534,-0.560174,-2.247905,0.750888,4.505329,0.947333,0.939556,0.000000,0.000000,0.000000,0.000000,0.000000,0.000000,0.000000,0.000000,0.349374,-6.316987,4.920918,0.556336,0.194299,-0.260605,0.000000,0.000000
2.681131425,71,80,-1.212747,-1.346534,-0.560174,-2.247905,0.750888,4.505329,0.947333,0.939556,0.000000,0.000000,0.000000,0.000000,0.000000,0.000000,0.000000,0.000000,0.115380,-5.858308,4.696684,0.580523,0.104457,-0.153536,0.000000,0.000000
2.692991734,71,80,-1.212747,-1.346534,-0.560174,-2.247905,0.750888,4.505329,0.947333,0.939556,0.000000,0.000000,0.000000,0.000000,0.000000,0.000000,0.000000,0.000000,0.135266,-6.148961,4.954158,0.615408,-0.008489,-0.165213,0.000000,0.000000
2.705258619,71,80,-1.212747,-1.346534,-0.560174,-2.247905,0.750888,4.505329,0.947333,0.939556,0.000000,0.000000,0.000000,0.000000,0.000000,0.000000,0.000000,0.000000,0.354391,-6.084765,5.192559,0.560326,0.119858,-0.075320,0.000000,0.000000
2.717113299,72,81,-1.212747,-1.346534,-0.560174,-2.247905,0.750888,4.505329,0.947333,0.939556,0.000000,0.000000,0.000000,0.000000,0.000000,0.000000,0.000000,0.000000,0.382520,-6.149559,4.937356,0.606815,0.168369,-0.165579,0.000000,0.000000
2.728983039,72,81,-1.212747,-1.346534,-0.560174,-2.247905,0.750888,4.505329,0.947333,0.939556,0.000000,0.000000,0.000000,0.000000,0.000000,0.000000,0.000000,0.000000,0.357550,-6.135085,4.528715,0.682541,-0.040601,-0.160741,0.000000,0.000000
2.741492195,73,82,-1.212747,-1.346534,-0.560174,-2.247905,0.750888,4.505329,0.947333,0.939556,0.000000,0.000000,0.000000,0.000000,0.000000,0.000000,0.000000,0.000000,0.575179,-6.161516,5.103341,0.485642,0.115503,-0.396088,0.000000,0.000000
2.753456039,73,82,-1.212747,-1.346534,-0.560174,-2.247905,0.750888,4.505329,0.947333,0.939556,0.000000,0.000000,0.000000,0.000000,0.000000,0.000000,0.000000,0.000000,0.312884,-6.288087,5.011442,0.407485,0.108762,-0.201508,0.000000,0.000000
2.765164235,73,82,-1.212747,-1.346534,-0.560174,-2.247905,0.750888,4.505329,0.947333,0.939556,0.000000,0.000000,0.000000,0.000000,0.000000,0.000000,0.000000,0.000000,0.211276,-6.333941,5.130933,0.342365,0.117894,-0.202099,0.000000,0.000000
2.777093909,74,83,-1.212747,-1.346534,-0.560174,-2.247905,0.750888,4.505329,0.947333,0.939556,0.000000,0.000000,0.000000,0.000000,0.000000,0.000000,0.000000,0.000000,0.242924,-6.317639,5.135588,0.673790,-0.025992,-0.225659,0.000000,0.000000
2.789100077,74,83,-1.212747,-1.346534,-0.560174,-2.247905,0.750888,4.505329,0.947333,0.939556,0.000000,0.000000,0.000000,0.000000,0.000000,0.000000,0.000000,0.000000,-0.041551,-6.325044,4.678247,0.714490,0.126807,-0.124591,0.000000,0.000000
2.801414986,74,83,-1.212747,-1.346534,-0.560174,-2.247905,0.750888,4.505329,0.947333,0.939556,0.000000,0.000000,0.000000,0.000000,0.000000,0.000000,0.000000,0.000000,0.245988,-5.740636,4.881986,0.659822,0.052174,-0.142344,0.000000,0.000000
2.813291583,75,84,-1.212747,-1.346534,-0.560174,-2.247905,0.750888,4.505329,0.947333,0.939556,0.000000,0.000000,0.000000,0.000000,0.000000,0.000000,0.000000,0.000000,0.711612,-6.333404,4.792515,0.593035,-0.008760,-0.204819,0.000000,0.000000
2.825119819,75,84,-1.212747,-1.346534,-0.560174,-2.247905,0.750888,4.505329,0.947333,0.939556,0.000000,0.000000,0.000000,0.000000,0.000000,0.000000,0.000000,0.000000,0.720937,-6.504241,4.998779,0.523016,0.105464,-0.282556,0.000000,0.000000
2.836942801,75,84,-1.212747,-1.346534,-0.560174,-2.247905,0.750888,4.505329,0.947333,0.939556,0.000000,0.000000,0.000000,0.000000,0.000000,0.000000,0.000000,0.000000,0.046675,-6.270687,4.615656,0.579755,0.115809,-0.207680,0.000000,0.000000
2.849185032,76,85,-1.212747,-1.346534,-0.560174,-2.247905,0.750888,4.505329,0.947333,0.939556,0.000000,0.000000,0.000000,0.000000,0.000000,0.000000,0.000000,0.000000,0.680386,-6.264395,4.302729,0.687032,0.114375,-0.186364,0.000000,0.000000
2.860996776,76,85,-1.212747,-1.346534,-0.560174,-2.247905,0.750888,4.505329,0.947333,0.939556,0.000000,0.000000,0.000000,0.000000,0.000000,0.000000,0.000000,0.000000,0.553793,-6.653772,4.906478,0.543529,0.211384,-0.039667,0.000000,0.000000
2.873291547,76,85,-1.212747,-1.346534,-0.560174,-2.247905,0.750888,4.505329,0.947333,0.939556,0.000000,0.000000,0.000000,0.000000,0.000000,0.000000,0.000000,0.000000,0.448879,-5.865604,4.878177,0.519976,0.062440,-0.072918,0.000000,0.000000
2.885272378,77,86,-1.212747,-1.346534,-0.560174,-2.247905,0.750888,4.505329,0.947333,0.939556,0.000000,0.000000,0.000000,0.000000,0.000000,0.000000,0.000000,0.000000,0.008696,-6.241312,5.020560,0.683780,0.010733,-0.037557,0.000000,0.000000
2.897294728,77,86,-1.212747,-1.346534,-0.560174,-2.247905,0.750888,4.505329,0.947333,0.939556,0.000000,0.000000,0.000000,0.000000,0.000000,0.000000,0.000000,0.000000,0.259136,-6.560135,5.362262,0.639375,-0.077762,-0.173990,0.000000,0.000000
2.909109430,78,87,-1.212747,-1.346534,-0.560174,-2.247905,0.750888,4.505329,0.947333,0.939556,0.000000,0.000000,0.000000,0.000000,0.000000,0.000000,0.000000,0.000000,0.409436,-6.331914,4.719296,0.733942,-0.004619,-0.103586,0.000000,0.000000
2.921420384,78,87,-1.212747,-1.346534,-0.560174,-2.247905,0.750888,4.505329,0.947333,0.939556,0.000000,0.000000,0.000000,0.000000,0.000000,0.000000,0.000000,0.000000,0.718388,-5.980817,4.948636,0.825474,0.016033,-0.268011,0.000000,0.000000
2.933342260,78,87,-1.212747,-1.346534,-0.560174,-2.247905,0.750888,4.505329,0.947333,0.939556,0.000000,0.000000,0.000000,0.000000,0.000000,0.000000,0.000000,0.000000,0.381158,-6.631703,5.070949,0.527247,0.136084,-0.033861,0.000000,0.000000
2.945251574,79,88,-1.212747,-1.346534,-0.560174,-2.247905,0.750888,4.505329,0.947333,0.939556,0.000000,0.000000,0.000000,0.000000,0.000000,0.000000,0.000000,0.000000,0.179843,-6.283732,4.974462,0.555897,0.117426,-0.222382,0.000000,0.000000
2.957593102,79,88,-1.212747,-1.346534,-0.560174,-2.247905,0.750888,4.505329,0.947333,0.939556,0.000000,0.000000,0.000000,0.000000,0.000000,0.000000,0.000000,0.000000,0.141150,-6.120868,4.993403,0.566755,0.063334,-0.173225,0.000000,0.000000
2.969447438,79,88,-1.212747,-1.346534,-0.560174,-2.247905,0.750888,4.505329,0.947333,0.939556,0.000000,0.000000,0.000000,0.000000,0.000000,0.000000,0.000000,0.000000,0.579999,-6.054054,4.644489,0.508360,0.136712,-0.341813,0.000000,0.000000
2.981280315,80,89,-1.212747,-1.346534,-0.560174,-2.247905,0.750888,4.505329,0.947333,0.939556,0.000000,0.000000,0.000000,0.000000,0.000000,0.000000,0.000000,0.000000,0.634015,-6.142313,4.797825,0.526260,0.111187,-0.281970,0.000000,0.000000
2.993157813,80,89,-1.212747,-1.346534,-0.560174,-2.247905,0.750888,4.505329,0.947333,0.939556,0.000000,0.000000,0.000000,0.000000,0.000000,0.000000,0.000000,0.000000,-0.071431,-6.234481,4.987176,0.486788,0.245096,-0.010202,0.000000,0.000000
3.005470807,80,89,-1.212747,-1.346534,-0.560174,-2.247905,0.750888,4.505329,0.947333,0.939556,0.000000,0.000000,0.000000,0.000000,0.000000,0.000000,0.000000,0.000000,0.020628,-5.916373,4.886205,0.683694,0.154807,-0.043221,0.000000,0.000000
3.017238051,81,90,-1.212747,-1.346534,-0.560174,-2.247905,0.750888,4.505329,0.947333,0.939556,0.000000,0.000000,0.000000,0.000000,0.000000,0.000000,0.000000,0.000000,0.097193,-5.912002,4.844103,0.560842,0.217717,-0.260451,0.000000,0.000000
3.029100316,81,90,-1.212747,-1.346534,-0.560174,-2.247905,0.750888,4.505329,0.947333,0.939556,0.000000,0.000000,0.000000,0.000000,0.000000,0.000000,0.000000,0.000000,0.119036,-6.144279,4.693517,0.356532,0.268502,-0.057315,0.000000,0.000000
3.041445710,81,90,-1.212747,-1.346534,-0.560174,-2.247905,0.750888,4.505329,0.947333,0.939556,0.000000,0.000000,0.000000,0.000000,0.000000,0.000000,0.000000,0.000000,0.451370,-6.198934,5.035510,0.567236,0.035456,-0.106498,0.000000,0.000000
3.053269161,82,91,-1.212747,-1.346534,-0.560174,-2.247905,0.750888,4.505329,0.947333,0.939556,0.000000,0.000000,0.000000,0.000000,0.000000,0.000000,0.000000,0.000000,0.375603,-6.485354,5.020586,0.589277,0.049187,-0.168888,0.000000,0.000000
3.065158617,82,91,-1.212747,-1.346534,-0.560174,-2.247905,0.750888,4.505329,0.947333,0.939556,0.000000,0.000000,0.000000,0.000000,0.000000,0.000000,0.000000,0.000000,0.098469,-6.122075,4.932281,0.647402,0.057685,-0.289078,0.000000,0.000000
3.076839553,82,91,-1.212747,-1.346534,-0.560174,-2.247905,0.750888,4.505329,0.947333,0.939556,0.000000,0.000000,0.000000,0.000000,0.000000,0.000000,0.000000,0.000000,0.523585,-6.136796,4.923489,0.644134,-0.071641,-0.176458,0.000000,0.000000
3.089348354,83,92,-1.212747,-1.346534,-0.560174,-2.247905,0.750888,4.505329,0.947333,0.939556,0.000000,0.000000,0.000000,0.000000,0.000000,0.000000,0.000000,0.000000,0.080870,-6.347965,4.627768,0.498905,0.149248,-0.075825,0.000000,0.000000
3.101214165,83,92,-1.212747,-1.346534,-0.560174,-2.247905,0.750888,4.505329,0.947333,0.939556,0.000000,0.000000,0.000000,0.000000,0.000000,0.000000,0.000000,0.000000,0.199929,-6.205044,5.224019,0.493304,0.077866,-0.085347,0.000000,0.000000
3.112972341,83,92,-1.212747,-1.346534,-0.560174,-2.247905,0.750888,4.505329,0.947333,0.939556,0.000000,0.000000,0.000000,0.000000,0.000000,0.000000,0.000000,0.000000,0.247287,-6.488134,4.865876,0.733285,0.096187,-0.106523,0.000000,0.000000
3.125521241,84,93,-1.212747,-1.346534,-0.560174,-2.247905,0.750888,4.505329,0.947333,0.939556,0.000000,0.000000,0.000000,0.000000,0.000000,0.000000,0.000000,0.000000,0.414703,-6.274661,5.214293,0.708529,-0.097711,-0.187614,0.000000,0.000000
3.137277522,84,93,-1.212747,-1.346534,-0.560174,-2.247905,0.750888,4.505329,0.947333,0.939556,0.000000,0.000000,0.000000,0.000000,0.000000,0.000000,0.000000,0.000000,0.591908,-6.069300,5.126967,0.641708,0.133565,-0.258874,0.000000,0.000000
3.149093260,85,94,-1.212747,-1.346534,-0.560174,-2.247905,0.750888,4.505329,0.947333,0.939556,0.000000,0.000000,0.000000,0.000000,0.000000,0.000000,0.000000,0.000000,0.265321,-5.980281,5.006755,0.658590,0.142640,-0.152347,0.000000,0.000000
3.160895767,85,94,-1.212747,-1.346534,-0.560174,-2.247905,0.750888,4.505329,0.947333,0.939556,0.000000,0.000000,0.000000,0.000000,0.000000,0.000000,0.000000,0.000000,0.288754,-5.927138,5.138112,0.717086,0.156459,-0.166153,0.000000,0.000000
3.173261435,85,94,-1.212747,-1.346534,-0.560174,-2.247905,0.750888,4.505329,0.947333,0.939556,0.000000,0.000000,0.000000,0.000000,0.000000,0.000000,0.000000,0.000000,0.268279,-6.314333,5.076437,0.532894,0.107704,-0.372590,0.000000,0.000000
3.187107010,86,95,-1.212747,-1.346534,-0.560174,-2.247905,0.750888,4.505329,0.947333,0.939556,0.000000,0.000000,0.000000,0.000000,0.000000,0.000000,0.000000,0.000000,0.360611,-6.132135,4.895629,0.469362,0.018386,-0.254329,0.000000,0.000000
3.199007376,86,95,-1.212747,-1.346534,-0.560174,-2.247905,0.750888,4.505329,0.947333,0.939556,0.000000,0.000000,0.000000,0.000000,0.000000,0.000000,0.000000,0.000000,-0.000583,-6.065613,4.809053,0.593219,0.020451,-0.047014,0.000000,0.000000
3.211271175,87,96,-1.212747,-1.346534,-0.560174,-2.247905,0.750888,4.505329,0.947333,0.939556,0.000000,0.000000,0.000000,0.000000,0.000000,0.000000,0.000000,0.000000,0.161085,-6.631027,4.534121,0.568483,0.046381,-0.265179,0.000000,0.000000
3.223033614,87,96,-1.212747,-1.346534,-0.560174,-2.247905,0.750888,4.505329,0.947333,0.939556,0.000000,0.000000,0.000000,0.000000,0.000000,0.000000,0.000000,0.000000,0.283496,-6.262585,4.496387,0.538277,-0.013967,-0.098033,0.000000,0.000000
3.235435848,87,96,-1.212747,-1.346534,-0.560174,-2.247905,0.750888,4.505329,0.947333,0.939556,0.000000,0.000000,0.000000,0.000000,0.000000,0.000000,0.000000,0.000000,0.386954,-6.275018,4.622856,0.744498,0.130692,-0.267895,0.000000,0.000000
3.247137675,88,97,-1.212747,-1.346534,-0.560174,-2.247905,0.750888,4.505329,0.947333,0.939556,0.000000,0.000000,0.000000,0.000000,0.000000,0.000000,0.000000,0.000000,0.218494,-6.169124,4.905529,0.607784,0.192405,-0.175604,0.000000,0.000000
3.258991944,88,97,-1.212747,-1.346534,-0.560174,-2.247905,0.750888,4.505329,0.947333,0.939556,0.000000,0.000000,0.000000,0.000000,0.000000,0.000000,0.000000,0.000000,0.329093,-6.165649,4.759057,0.460215,0.248752,0.020343,0.000000,0.000000
3.271334974,88,97,-1.212747,-1.346534,-0.560174,-2.247905,0.750888,4.505329,0.947333,0.939556,0.000000,0.000000,0.000000,0.000000,0.000000,0.000000,0.000000,0.000000,0.327723,-6.490144,5.184165,0.579242,0.101445,-0.108419,0.000000,0.000000
3.283052044,89,98,-1.212747,-1.346534,-0.560174,-2.247905,0.750888,4.505329,0.947333,0.939556,0.000000,0.000000,0.000000,0.000000,0.000000,0.000000,0.000000,0.000000,0.317936,-5.819080,4.874788,0.460214,0.074265,-0.332361,0.000000,0.000000
3.294947556,89,98,-1.212747,-1.346534,-0.560174,-2.247905,0.750888,4.505329,0.947333,0.939556,0.000000,0.000000,0.000000,0.000000,0.000000,0.000000,0.000000,0.000000,0.131762,-6.287884,4.890515,0.496087,0.059676,-0.161440,0.000000,0.000000
3.306928820,89,98,-1.212747,-1.346534,-0.560174,-2.247905,0.750888,4.505329,0.947333,0.939556,0.000000,0.000000,0.000000,0.000000,0.000000,0.000000,0.000000,0.000000,0.298944,-6.502923,4.726301,0.696902,0.060926,-0.344193,0.000000,0.000000
3.319470815,90,99,-1.212747,-1.346534,-0.560174,-2.247905,0.750888,4.505329,0.947333,0.939556,0.000000,0.000000,0.000000,0.000000,0.000000,0.000000,0.000000,0.000000,0.544626,-6.273620,5.071898,0.516824,0.105649,-0.127918,0.000000,0.000000
3.331176319,90,99,-1.212747,-1.346534,-0.560174,-2.247905,0.750888,4.505329,0.947333,0.939556,0.000000,0.000000,0.000000,0.000000,0.000000,0.000000,0.000000,0.000000,0.134228,-6.454905,5.233159,0.400071,0.160307,-0.164576,0.000000,0.000000
3.343134066,90,99,-1.212747,-1.346534,-0.560174,-2.247905,0.750888,4.505329,0.947333,0.939556,0.000000,0.000000,0.000000,0.000000,0.000000,0.000000,0.000000,0.000000,0.310858,-6.210088,4.923398,0.443452,0.151332,-0.041481,0.000000,0.000000
3.354977921,91,100,-1.212747,-1.346534,-0.560174,-2.247905,0.750888,4.505329,0.947333,0.939556,0.000000,0.000000,0.000000,0.000000,0.000000,0.000000,0.000000,0.000000,0.181228,-6.062153,4.894592,0.637109,0.132712,-0.067755,0.000000,0.000000
3.367445387,91,100,-1.212747,-1.346534,-0.560174,-2.247905,0.750888,4.505329,0.947333,0.939556,0.000000,0.000000,0.000000,0.000000,0.000000,0.000000,0.000000,0.000000,0.679537,-5.870975,5.173064,0.638366,0.184090,-0.258143,0.000000,0.000000
3.379395837,92,101,-1.212747,-1.346534,-0.560174,-2.247905,0.750888,4.505329,0.947333,0.939556,0.000000,0.000000,0.000000,0.000000,0.000000,0.000000,0.000000,0.000000,0.376858,-5.843215,5.040721,0.422695,0.054425,-0.082200,0.000000,0.000000
3.391051965,92,101,-1.212747,-1.346534,-0.560174,-2.247905,0.750888,4.505329,0.947333,0.939556,0.000000,0.000000,0.000000,0.000000,0.000000,0.000000,0.000000,0.000000,0.304486,-6.457394,4.848416,0.713472,0.182264,0.018109,0.000000,0.000000
3.403517201,92,101,-1.212747,-1.346534,-0.560174,-2.247905,0.750888,4.505329,0.947333,0.939556,0.000000,0.000000,0.000000,0.000000,0.000000,0.000000,0.000000,0.000000,0.765124,-5.769514,5.033901,0.518395,0.178062,-0.154876,0.000000,0.000000
3.414915511,93,102,-1.212747,-1.346534,-0.560174,-2.247905,0.750888,4.505329,0.947333,0.939556,0.000000,0.000000,0.000000,0.000000,0.000000,0.000000,0.000000,0.000000,0.361357,-6.291883,4.884352,0.828593,0.200773,-0.186772,0.000000,0.000000
3.427365383,93,102,-1.212747,-1.346534,-0.560174,-2.247905,0.750888,4.505329,0.947333,0.939556,0.000000,0.000000,0.000000,0.000000,0.000000,0.000000,0.000000,0.000000,0.433866,-6.312537,4.772075,0.498422,0.027563,-0.242423,0.000000,0.000000
3.440833537,93,102,-1.212747,-1.346534,-0.560174,-2.247905,0.750888,4.505329,0.947333,0.939556,0.000000,0.000000,0.000000,0.000000,0.000000,0.000000,0.000000,0.000000,-0.051105,-6.158394,5.040101,0.654858,-0.020817,-0.357956,0.000000,0.000000
3.454058237,94,103,-1.212747,-1.346534,-0.560174,-2.247905,0.750888,4.505329,0.947333,0.939556,0.000000,0.000000,0.000000,0.000000,0.000000,0.000000,0.000000,0.000000,0.644642,-6.251347,4.726441,0.495772,0.068508,-0.084622,0.000000,0.000000
3.465057644,94,103,-1.212747,-1.346534,-0.560174,-2.247905,0.750888,4.505329,0.947333,0.939556,0.000000,0.000000,0.000000,0.000000,0.000000,0.000000,0.000000,0.000000,0.784252,-6.330613,4.707592,0.697635,0.229892,-0.239710,0.000000,0.000000
3.477350590,94,103,-1.212747,-1.346534,-0.560174,-2.247905,0.750888,4.505329,0.947333,0.939556,0.000000,0.000000,0.000000,0.000000,0.000000,0.000000,0.000000,0.000000,0.121229,-6.077975,4.779602,0.638935,0.289930,-0.178965,0.000000,0.000000
3.489180340,95,104,-1.212747,-1.346534,-0.560174,-2.247905,0.750888,4.505329,0.947333,0.939556,0.000000,0.000000,0.000000,0.000000,0.000000,0.000000,0.000000,0.000000,0.086108,-6.326547,4.878285,0.519834,0.203859,-0.176286,0.000000,0.000000
3.501286398,95,104,-1.212747,-1.346534,-0.560174,-2.247905,0.750888,4.505329,0.947333,0.939556,0.000000,0.000000,0.000000,0.000000,0.000000,0.000000,0.000000,0.000000,0.379617,-6.128639,5.108219,0.668099,0.078964,-0.320092,0.000000,0.000000
3.513126982,95,104,-1.212747,-1.346534,-0.560174,-2.247905,0.750888,4.505329,0.947333,0.939556,0.000000,0.000000,0.000000,0.000000,0.000000,0.000000,0.000000,0.000000,0.457969,-5.777430,5.321862,0.744063,0.031604,-0.353350,0.000000,0.000000
3.524944548,96,105,-1.212747,-1.346534,-0.560174,-2.247905,0.750888,4.505329,0.947333,0.939556,0.000000,0.000000,0.000000,0.000000,0.000000,0.000000,0.000000,0.000000,0.082669,-6.554747,5.121139,0.650716,0.042668,-0.158350,0.000000,0.000000
3.536959091,96,105,-1.212747,-1.346534,-0.560174,-2.247905,0.750888,4.505329,0.947333,0.939556,0.000000,0.000000,0.000000,0.000000,0.000000,0.000000,0.000000,0.000000,0.330923,-5.969761,4.741286,0.670596,0.040379,-0.319240,0.000000,0.000000
3.549459799,97,106,-1.212747,-1.346534,-0.560174,-2.247905,0.750888,4.505329,0.947333,0.939556,0.000000,0.000000,0.000000,0.000000,0.000000,0.000000,0.000000,0.000000,0.589164,-6.391016,5.037441,0.608225,-0.051679,-0.311528,0.000000,0.000000
3.561314271,97,106,-1.212747,-1.346534,-0.560174,-2.247905,0.750888,4.505329,0.947333,0.939556,0.000000,0.000000,0.000000,0.000000,0.000000,0.000000,0.000000,0.000000,0.164570,-6.163671,4.762895,0.562687,-0.044769,-0.143586,0.000000,0.000000
3.573313367,97,106,-1.212747,-1.346534,-0.560174,-2.247905,0.750888,4.505329,0.947333,0.939556,0.000000,0.000000,0.000000,0.000000,0.000000,0.000000,0.000000,0.000000,-0.035373,-6.364099,4.718354,0.380201,0.063504,-0.016456,0.000000,0.000000
3.585078820,98,107,-1.212747,-1.346534,-0.560174,-2.247905,0.750888,4.505329,0.947333,0.939556,0.000000,0.000000,0.000000,0.000000,0.000000,0.000000,0.000000,0.000000,0.463257,-6.074841,4.529484,0.713033,-0.026212,-0.189692,0.000000,0.000000
3.596896058,98,107,-1.212747,-1.346534,-0.560174,-2.247905,0.750888,4.505329,0.947333,0.939556,0.000000,0.000000,0.000000,0.000000,0.000000,0.000000,0.000000,0.000000,0.575011,-6.312324,4.508111,0.475012,0.144306,-0.101069,0.000000,0.000000
3.608983689,98,107,-1.212747,-1.346534,-0.560174,-2.247905,0.750888,4.505329,0.947333,0.939556,0.000000,0.000000,0.000000,0.000000,0.000000,0.000000,0.000000,0.000000,0.003459,-6.502105,4.806136,0.484300,0.033078,0.109293,0.000000,0.000000
3.621211350,99,108,-1.212747,-1.346534,-0.560174,-2.247905,0.750888,4.505329,0.947333,0.939556,0.000000,0.000000,0.000000,0.000000,0.000000,0.000000,0.000000,0.000000,0.080506,-6.315916,4.925377,0.697452,0.104901,-0.025155,0.000000,0.000000
3.633100675,99,108,-1.212747,-1.346534,-0.560174,-2.247905,0.750888,4.505329,0.947333,0.939556,0.000000,0.000000,0.000000,0.000000,0.000000,0.000000,0.000000,0.000000,0.116305,-6.269998,5.047727,0.596002,0.127030,-0.190257,0.000000,0.000000
3.644923165,99,108,-1.212747,-1.346534,-0.560174,-2.247905,0.750888,4.505329,0.947333,0.939556,0.000000,0.000000,0.000000,0.000000,0.000000,0.000000,0.000000,0.000000,0.147831,-6.477707,4.640556,0.682106,0.212382,-0.069454,0.000000,0.000000
3.657453959,100,109,-1.212747,-1.346534,-0.560174,-2.247905,0.750888,4.505329,0.947333,0.939556,0.000000,0.000000,0.000000,0.000000,0.000000,0.000000,0.000000,0.000000,0.355598,-6.487657,4.797696,0.635705,0.206662,-0.053670,0.000000,0.000000
3.669217274,100,109,-1.212747,-1.346534,-0.560174,-2.247905,0.750888,4.505329,0.947333,0.939556,0.000000,0.000000,0.000000,0.000000,0.000000,0.000000,0.000000,0.000000,0.479070,-6.239008,5.002227,0.495010,0.222214,-0.305416,0.000000,0.000000
3.681097641,100,109,-1.212747,-1.346534,-0.560174,-2.247905,0.750888,4.505329,0.947333,0.939556,0.000000,0.000000,0.000000,0.000000,0.000000,0.000000,0.000000,0.000000,0.513379,-6.113861,4.938060,0.668355,0.099940,-0.307717,0.000000,0.000000
3.693837139,101,110,-1.212747,-1.346534,-0.560174,-2.247905,0.750888,4.505329,0.947333,0.939556,0.000000,0.000000,0.000000,0.000000,0.000000,0.000000,0.000000,0.000000,0.291516,-6.179485,4.818044,0.627343,-0.040733,-0.252654,0.000000,0.000000
3.706140003,101,110,-1.212747,-1.346534,-0.560174,-2.247905,0.750888,4.505329,0.947333,0.939556,0.000000,0.000000,0.000000,0.000000,0.000000,0.000000,0.000000,0.000000,0.601976,-6.426688,4.929301,0.513117,0.198094,-0.014895,0.000000,0.000000
3.717939458,102,111,-1.212747,-1.346534,-0.560174,-2.247905,0.750888,4.505329,0.947333,0.939556,0.000000,0.000000,0.000000,0.000000,0.000000,0.000000,0.000000,0.000000,0.566553,-6.201192,5.010638,0.592383,0.126193,-0.199970,0.000000,0.000000
3.730357386,102,111,-1.212747,-1.346534,-0.560174,-2.247905,0.750888,4.505329,0.947333,0.939556,0.000000,0.000000,0.000000,0.000000,0.000000,0.000000,0.000000,0.000000,-0.025099,-6.329400,4.656380,0.611192,0.090552,-0.262419,0.000000,0.000000
3.742427558,102,111,-1.212747,-1.346534,-0.560174,-2.247905,0.750888,4.505329,0.947333,0.939556,0.000000,0.000000,0.000000,0.000000,0.000000,0.000000,0.000000,0.000000,0.061822,-5.991322,4.954373,0.707225,-0.001281,-0.252497,0.000000,0.000000
3.754296866,103,112,-1.212747,-1.346534,-0.560174,-2.247905,0.750888,4.505329,0.947333,0.939556,0.000000,0.000000,0.000000,0.000000,0.000000,0.000000,0.000000,0.000000,-0.071731,-6.138064,5.006758,0.624838,0.039189,-0.086574,0.000000,0.000000
3.766221105,103,112,-1.212747,-1.346534,-0.560174,-2.247905,0.750888,4.505329,0.947333,0.939556,0.000000,0.000000,0.000000,0.000000,0.000000,0.000000,0.000000,0.000000,0.314502,-6.054859,4.679998,0.486827,0.111367,-0.112583,0.000000,0.000000
3.777874362,103,112,-1.212747,-1.346534,-0.560174,-2.247905,0.750888,4.505329,0.947333,0.939556,0.000000,0.000000,0.000000,0.000000,0.000000,0.000000,0.000000,0.000000,0.331673,-6.347898,4.658360,0.608435,0.004487,0.015577,0.000000,0.000000
3.790322605,104,113,-1.212747,-1.346534,-0.560174,-2.247905,0.750888,4.505329,0.947333,0.939556,0.000000,0.000000,0.000000,0.000000,0.000000,0.000000,0.000000,0.000000,0.490553,-6.073225,5.078880,0.639334,0.190997,-0.200987,0.000000,0.000000
3.802309159,104,113,-1.212747,-1.346534,-0.560174,-2.247905,0.750888,4.505329,0.947333,0.939556,0.000000,0.000000,0.000000,0.000000,0.000000,0.000000,0.000000,0.000000,0.519741,-6.271539,4.816664,0.422757,0.172654,-0.095912,0.000000,0.000000
3.814203390,104,113,-1.212747,-1.346534,-0.560174,-2.247905,0.750888,4.505329,0.947333,0.939556,0.000000,0.000000,0.000000,0.000000,0.000000,0.000000,0.000000,0.000000,0.031920,-6.271726,4.692049,0.669073,0.232785,-0.235444,0.000000,0.000000
3.826039445,105,114,-1.212747,-1.346534,-0.560174,-2.247905,0.750888,4.505329,0.947333,0.939556,0.000000,0.000000,0.000000,0.000000,0.000000,0.000000,0.000000,0.000000,0.219206,-6.254247,4.870784,0.658485,0.140784,-0.052939,0.000000,0.000000
3.838365415,105,114,-1.212747,-1.346534,-0.560174,-2.247905,0.750888,4.505329,0.947333,0.939556,0.000000,0.000000,0.000000,0.000000,0.000000,0.000000,0.000000,0.000000,0.532835,-6.222312,4.748851,0.544575,0.127228,-0.215509,0.000000,0.000000
3.850125071,106,115,-1.212747,-1.346534,-0.560174,-2.247905,0.750888,4.505329,0.947333,0.939556,0.000000,0.000000,0.000000,0.000000,0.000000,0.000000,0.000000,0.000000,0.212676,-6.232458,4.478528,0.742578,0.028302,-0.156152,0.000000,0.000000
3.862375463,106,115,-1.212747,-1.346534,-0.560174,-2.247905,0.750888,4.505329,0.947333,0.939556,0.000000,0.000000,0.000000,0.000000,0.000000,0.000000,0.000000,0.000000,0.463498,-6.091559,4.960629,0.498172,0.088916,-0.294569,0.000000,0.000000
3.874191501,106,115,-1.212747,-1.346534,-0.560174,-2.247905,0.750888,4.505329,0.947333,0.939556,0.000000,0.000000,0.000000,0.000000,0.000000,0.000000,0.000000,0.000000,0.464272,-6.275732,4.725738,0.568728,0.056026,-0.118231,0.000000,0.000000
3.886205734,107,116,-1.212747,-1.346534,-0.560174,-2.247905,0.750888,4.505329,0.947333,0.939556,0.000000,0.000000,0.000000,0.000000,0.000000,0.000000,0.000000,0.000000,0.333150,-6.373078,4.821623,0.535797,-0.025558,-0.068329,0.000000,0.000000
3.897912804,107,116,-1.212747,-1.346534,-0.560174,-2.247905,0.750888,4.505329,0.947333,0.939556,0.000000,0.000000,0.000000,0.000000,0.000000,0.000000,0.000000,0.000000,0.573828,-5.987194,4.857032,0.561659,-0.067784,-0.091673,0.000000,0.000000
3.910228888,107,116,-1.212747,-1.346534,-0.560174,-2.247905,0.750888,4.505329,0.947333,0.939556,0.000000,0.000000,0.000000,0.000000,0.000000,0.000000,0.000000,0.000000,0.556116,-6.416530,4.993318,0.452713,0.223290,-0.228907,0.000000,0.000000
3.922124324,108,117,-1.212747,-1.346534,-0.560174,-2.247905,0.750888,4.505329,0.947333,0.939556,0.000000,0.000000,0.000000,0.000000,0.000000,0.000000,0.000000,0.000000,-0.024538,-6.407411,4.649458,0.691383,0.190362,-0.137112,0.000000,0.000000
3.933930059,108,117,-1.212747,-1.346534,-0.560174,-2.247905,0.750888,4.505329,0.947333,0.939556,0.000000,0.000000,0.000000,0.000000,0.000000,0.000000,0.000000,0.000000,0.056398,-5.926040,4.695032,0.585394,0.060500,-0.118245,0.000000,0.000000
3.946485194,108,117,-1.212747,-1.346534,-0.560174,-2.247905,0.750888,4.505329,0.947333,0.939556,0.000000,0.000000,0.000000,0.000000,0.000000,0.000000,0.000000,0.000000,0.441243,-6.403258,4.864852,0.501681,-0.001966,-0.267249,0.000000,0.000000
3.961997724,109,118,-1.212747,-1.346534,-0.560174,-2.247905,0.750888,4.505329,0.947333,0.939556,0.000000,0.000000,0.000000,0.000000,0.000000,0.000000,0.000000,0.000000,-0.036977,-6.129710,5.101173,0.571084,0.100363,-0.226868,0.000000,0.000000
3.974035747,109,118,-1.212747,-1.346534,-0.560174,-2.247905,0.750888,4.505329,0.947333,0.939556,0.000000,0.000000,0.000000,0.000000,0.000000,0.000000,0.000000,0.000000,0.060360,-5.970358,4.989625,0.621777,0.000317,-0.280191,0.000000,0.000000
3.986057028,110,119,-1.212747,-1.346534,-0.560174,-2.247905,0.750888,4.505329,0.947333,0.939556,0.000000,0.000000,0.000000,0.000000,0.000000,0.000000,0.000000,0.000000,0.124760,-5.900153,5.254148,0.618215,0.053475,-0.289965,0.000000,0.000000
3.998203803,110,119,-1.212747,-1.346534,-0.560174,-2.247905,0.750888,4.505329,0.947333,0.939556,0.000000,0.000000,0.000000,0.000000,0.000000,0.000000,0.000000,0.000000,0.416971,-6.289476,4.546659,0.485127,0.039188,-0.137787,0.000000,0.000000
4.011898535,110,119,-1.212747,-1.346534,-0.560174,-2.247905,0.750888,4.505329,0.947333,0.939556,0.000000,0.000000,0.000000,0.000000,0.000000,0.000000,0.000000,0.000000,0.362316,-6.119289,5.123312,0.611788,0.060180,0.000521,0.000000,0.000000
4.024405073,111,120,-1.212747,-1.346534,-0.560174,-2.247905,0.750888,4.505329,0.947333,0.939556,0.000000,0.000000,0.000000,0.000000,0.000000,0.000000,0.000000,0.000000,0.243733,-6.450449,4.714043,0.442814,0.212753,-0.242742,0.000000,0.000000
4.035965235,111,120,-1.212747,-1.346534,-0.560174,-2.247905,0.750888,4.505329,0.947333,0.939556,0.000000,0.000000,0.000000,0.000000,0.000000,0.000000,0.000000,0.000000,0.199820,-6.006268,4.635057,0.627461,0.197413,-0.033557,0.000000,0.000000
4.048506460,111,120,-1.212747,-1.346534,-0.560174,-2.247905,0.750888,4.505329,0.947333,0.939556,0.000000,0.000000,0.000000,0.000000,0.000000,0.000000,0.000000,0.000000,0.067861,-5.972138,4.769942,0.563160,0.261325,-0.147872,0.000000,0.000000
4.060356600,112,121,-1.212747,-1.346534,-0.560174,-2.247905,0.750888,4.505329,0.947333,0.939556,0.000000,0.000000,0.000000,0.000000,0.000000,0.000000,0.000000,0.000000,0.374306,-5.935970,4.999766,0.552703,0.061273,-0.161560,0.000000,0.000000
4.072057072,112,121,-1.212747,-1.346534,-0.560174,-2.247905,0.750888,4.505329,0.947333,0.939556,0.000000,0.000000,0.000000,0.000000,0.000000,0.000000,0.000000,0.000000,0.501888,-6.199828,4.752385,0.644828,0.201259,-0.062314,0.000000,0.000000
4.084456935,112,121,-1.212747,-1.346534,-0.560174,-2.247905,0.750888,4.505329,0.947333,0.939556,0.000000,0.000000,0.000000,0.000000,0.000000,0.000000,0.000000,0.000000,-0.023668,-5.890870,4.796925,0.610339,0.261003,-0.260693,0.000000,0.000000
4.096127645,113,122,-1.212747,-1.346534,-0.560174,-2.247905,0.750888,4.505329,0.947333,0.939556,0.000000,0.000000,0.000000,0.000000,0.000000,0.000000,0.000000,0.000000,0.111444,-6.172422,4.654938,0.590163,0.013008,-0.235049,0.000000,0.000000
4.109151727,113,122,-1.212747,-1.346534,-0.560174,-2.247905,0.750888,4.505329,0.947333,0.939556,0.000000,0.000000,0.000000,0.000000,0.000000,0.000000,0.000000,0.000000,0.552925,-6.013693,5.017793,0.536484,0.128512,-0.224194,0.000000,0.000000
4.120981571,114,123,-1.212747,-1.346534,-0.560174,-2.247905,0.750888,4.505329,0.947333,0.939556,0.000000,0.000000,0.000000,0.000000,0.000000,0.000000,0.000000,0.000000,0.026137,-6.618313,4.981846,0.674659,0.027274,-0.056096,0.000000,0.000000
4.133402706,114,123,-1.212747,-1.346534,-0.560174,-2.247905,0.750888,4.505329,0.947333,0.939556,0.000000,0.000000,0.000000,0.000000,0.000000,0.000000,0.000000,0.000000,0.306126,-6.565827,5.303196,0.550849,0.122137,-0.289192,0.000000,0.000000
4.145176399,114,123,-1.212747,-1.346534,-0.560174,-2.247905,0.750888,4.505329,0.947333,0.939556,0.000000,0.000000,0.000000,0.000000,0.000000,0.000000,0.000000,0.000000,0.484232,-5.765190,5.065123,0.692217,0.179754,-0.088056,0.000000,0.000000
4.156961233,115,124,-1.212747,-1.346534,-0.560174,-2.247905,0.750888,4.505329,0.947333,0.939556,0.000000,0.000000,0.000000,0.000000,0.000000,0.000000,0.000000,0.000000,0.293202,-6.298472,5.019480,0.569428,0.181069,-0.234824,0.000000,0.000000
4.169372933,115,124,-1.212747,-1.346534,-0.560174,-2.247905,0.750888,4.505329,0.947333,0.939556,0.000000,0.000000,0.000000,0.000000,0.000000,0.000000,0.000000,0.000000,0.284626,-6.018408,4.998119,0.519750,0.130448,-0.232526,0.000000,0.000000
4.180929260,115,124,-1.212747,-1.346534,-0.560174,-2.247905,0.750888,4.505329,0.947333,0.939556,0.000000,0.000000,0.000000,0.000000,0.000000,0.000000,0.000000,0.000000,0.269333,-6.342925,5.098121,0.548609,0.278225,-0.028659,0.000000,0.000000
4.192976341,116,125,-1.212747,-1.346534,-0.560174,-2.247905,0.750888,4.505329,0.947333,0.939556,0.000000,0.000000,0.000000,0.000000,0.000000,0.000000,0.000000,0.000000,0.155528,-6.437741,4.953290,0.494652,0.224514,0.000716,0.000000,0.000000
4.205470356,116,125,-1.212747,-1.346534,-0.560174,-2.247905,0.750888,4.505329,0.947333,0.939556,0.000000,0.000000,0.000000,0.000000,0.000000,0.000000,0.000000,0.000000,0.209400,-6.446830,4.964881,0.645506,0.200655,-0.142391,0.000000,0.000000
4.217049414,117,126,-1.212747,-1.346534,-0.560174,-2.247905,0.750888,4.505329,0.947333,0.939556,0.000000,0.000000,0.000000,0.000000,0.000000,0.000000,0.000000,0.000000,0.611686,-6.390212,5.085606,0.622638,0.234126,-0.143588,0.000000,0.000000
4.229328375,117,126,-1.212747,-1.346534,-0.560174,-2.247905,0.750888,4.505329,0.947333,0.939556,0.000000,0.000000,0.000000,0.000000,0.000000,0.000000,0.000000,0.000000,0.137499,-6.291537,5.012524,0.456940,0.194300,-0.218112,0.000000,0.000000
4.241096323,117,126,-1.212747,-1.346534,-0.560174,-2.247905,0.750888,4.505329,0.947333,0.939556,0.000000,0.000000,0.000000,0.000000,0.000000,0.000000,0.000000,0.000000,0.394886,-6.141521,4.713928,0.695060,0.179058,-0.287904,0.000000,0.000000
4.253082991,118,127,-1.212747,-1.346534,-0.560174,-2.247905,0.750888,4.505329,0.947333,0.939556,0.000000,0.000000,0.000000,0.000000,0.000000,0.000000,0.000000,0.000000,0.339163,-6.014069,4.924031,0.522154,0.095851,-0.091998,0.000000,0.000000
4.265185422,118,127,-1.212747,-1.346534,-0.560174,-2.247905,0.750888,4.505329,0.947333,0.939556,0.000000,0.000000,0.000000,0.000000,0.000000,0.000000,0.000000,0.000000,0.280887,-6.659232,4.551385,0.500547,0.265716,-0.159706,0.000000,0.000000
4.277002565,118,127,-1.212747,-1.346534,-0.560174,-2.247905,0.750888,4.505329,0.947333,0.939556,0.000000,0.000000,0.000000,0.000000,0.000000,0.000000,0.000000,0.000000,0.144295,-5.779845,4.939260,0.451674,0.212461,-0.086816,0.000000,0.000000
4.288968904,119,128,-1.212747,-1.346534,-0.560174,-2.247905,0.750888,4.505329,0.947333,0.939556,0.000000,0.000000,0.000000,0.000000,0.000000,0.000000,0.000000,0.000000,-0.092995,-6.210330,5.242991,0.691785,0.129339,-0.203080,0.000000,0.000000
4.301530014,119,128,-1.212747,-1.346534,-0.560174,-2.247905,0.750888,4.505329,0.947333,0.939556,0.000000,0.000000,0.000000,0.000000,0.000000,0.000000,0.000000,0.000000,0.504478,-6.426085,4.774191,0.480800,0.205981,-0.179320,0.000000,0.000000
4.314262926,119,128,-1.212747,-1.346534,-0.560174,-2.247905,0.750888,4.505329,0.947333,0.939556,0.000000,0.000000,0.000000,0.000000,0.000000,0.000000,0.000000,0.000000,0.453198,-5.912381,4.938848,0.661235,0.155260,-0.217634,0.000000,0.000000
4.324957826,120,129,-1.212747,-1.346534,-0.560174,-2.247905,0.750888,4.505329,0.947333,0.939556,0.000000,0.000000,0.000000,0.000000,0.000000,0.000000,0.000000,0.000000,0.300322,-6.215893,4.995386,0.617292,0.220400,-0.046146,0.000000,0.000000
4.337429916,120,129,-1.212747,-1.346534,-0.560174,-2.247905,0.750888,4.505329,0.947333,0.939556,0.000000,0.000000,0.000000,0.000000,0.000000,0.000000,0.000000,0.000000,0.623814,-5.980073,4.659550,0.629436,0.063873,-0.304738,0.000000,0.000000
4.350181661,120,129,-1.212747,-1.346534,-0.560174,-2.247905,0.750888,4.505329,0.947333,0.939556,0.000000,0.000000,0.000000,0.000000,0.000000,0.000000,0.000000,0.000000,0.062452,-6.444895,4.892262,0.483126,0.174841,0.003433,0.000000,0.000000
4.361989149,121,130,-1.212747,-1.346534,-0.560174,-2.247905,0.750888,4.505329,0.947333,0.939556,0.000000,0.000000,0.000000,0.000000,0.000000,0.000000,0.000000,0.000000,0.575815,-6.268092,4.658313,0.550211,0.182760,-0.212453,0.000000,0.000000
4.374295727,121,130,-1.212747,-1.346534,-0.560174,-2.247905,0.750888,4.505329,0.947333,0.939556,0.000000,0.000000,0.000000,0.000000,0.000000,0.000000,0.000000,0.000000,0.142590,-6.211805,4.766683,0.578484,0.123112,-0.252504,0.000000,0.000000
4.386161715,122,131,-1.212747,-1.346534,-0.560174,-2.247905,0.750888,4.505329,0.947333,0.939556,0.000000,0.000000,0.000000,0.000000,0.000000,0.000000,0.000000,0.000000,0.428104,-6.444326,4.500399,0.601247,0.240017,-0.317442,0.000000,0.000000
4.398325582,122,131,-1.212747,-1.346534,-0.560174,-2.247905,0.750888,4.505329,0.947333,0.939556,0.000000,0.000000,0.000000,0.000000,0.000000,0.000000,0.000000,0.000000,0.270394,-6.502323,4.999760,0.546942,0.162574,-0.069525,0.000000,0.000000
4.410148865,122,131,-1.212747,-1.346534,-0.560174,-2.247905,0.750888,4.505329,0.947333,0.939556,0.000000,0.000000,0.000000,0.000000,0.000000,0.000000,0.000000,0.000000,0.252944,-6.268645,5.094027,0.741580,0.132364,-0.172917,0.000000,0.000000
4.421925485,123,132,-1.212747,-1.346534,-0.560174,-2.247905,0.750888,4.505329,0.947333,0.939556,0.000000,0.000000,0.000000,0.000000,0.000000,0.000000,0.000000,0.000000,0.477961,-6.116547,4.465900,0.682643,0.182446,-0.134727,0.000000,0.000000
4.434307799,123,132,-1.212747,-1.346534,-0.560174,-2.247905,0.750888,4.505329,0.947333,0.939556,0.000000,0.000000,0.000000,0.000000,0.000000,0.000000,0.000000,0.000000,0.424320,-6.095494,4.757034,0.615000,0.320260,-0.240980,0.000000,0.000000
4.446291043,123,132,-1.212747,-1.346534,-0.560174,-2.247905,0.750888,4.505329,0.947333,0.939556,0.000000,0.000000,0.000000,0.000000,0.000000,0.000000,0.000000,0.000000,0.514112,-5.840861,5.087292,0.592480,0.250935,-0.186578,0.000000,0.000000
4.458077140,124,133,-1.212747,-1.346534,-0.560174,-2.247905,0.750888,4.505329,0.947333,0.939556,0.000000,0.000000,0.000000,0.000000,0.000000,0.000000,0.000000,0.000000,0.067772,-6.029487,4.987342,0.560022,0.278618,-0.124293,0.000000,0.000000
4.469956375,124,133,-1.212747,-1.346534,-0.560174,-2.247905,0.750888,4.505329,0.947333,0.939556,0.000000,0.000000,0.000000,0.000000,0.000000,0.000000,0.000000,0.000000,0.747112,-6.450157,5.257047,0.707946,0.020922,-0.278024,0.000000,0.000000
4.482278629,124,133,-1.212747,-1.346534,-0.560174,-2.247905,0.750888,4.505329,0.947333,0.939556,0.000000,0.000000,0.000000,0.000000,0.000000,0.000000,0.000000,0.000000,0.600037,-5.981689,4.639502,0.538020,0.111788,-0.400204,0.000000,0.000000
4.494060034,125,134,-1.212747,-1.346534,-0.560174,-2.247905,0.750888,4.505329,0.947333,0.939556,0.000000,0.000000,0.000000,0.000000,0.000000,0.000000,0.000000,0.000000,0.025656,-6.264098,4.622619,0.625126,0.194525,-0.091721,0.000000,0.000000
4.506505303,125,134,-1.212747,-1.346534,-0.560174,-2.247905,0.750888,4.505329,0.947333,0.939556,0.000000,0.000000,0.000000,0.000000,0.000000,0.000000,0.000000,0.000000,-0.101138,-6.319480,4.898585,0.464094,0.199421,-0.068579,0.000000,0.000000
4.518647357,126,135,-1.212747,-1.346534,-0.560174,-2.247905,0.750888,4.505329,0.947333,0.939556,0.000000,0.000000,0.000000,0.000000,0.000000,0.000000,0.000000,0.000000,0.271730,-6.323709,5.001779,0.687110,0.116231,-0.225693,0.000000,0.000000
4.530049778,126,135,-1.212747,-1.346534,-0.560174,-2.247905,0.750888,4.505329,0.947333,0.939556,0.000000,0.000000,0.000000,0.000000,0.000000,0.000000,0.000000,0.000000,0.041697,-6.371033,5.085932,0.570492,0.042109,-0.083255,0.000000,0.000000
4.542051641,126,135,-1.212747,-1.346534,-0.560174,-2.247905,0.750888,4.505329,0.947333,0.939556,0.000000,0.000000,0.000000,0.000000,0.000000,0.000000,0.000000,0.000000,0.312222,-6.441574,4.782239,0.466521,0.061837,-0.157308,0.000000,0.000000
4.554316626,127,136,-1.212747,-1.346534,-0.560174,-2.247905,0.750888,4.505329,0.947333,0.939556,0.000000,0.000000,0.000000,0.000000,0.000000,0.000000,0.000000,0.000000,0.825599,-6.214885,4.973541,0.775233,0.228190,-0.203167,0.000000,0.000000
4.566191839,127,136,-1.212747,-1.346534,-0.560174,-2.247905,0.750888,4.505329,0.947333,0.939556,0.000000,0.000000,0.000000,0.000000,0.000000,0.000000,0.000000,0.000000,-0.071509,-6.000969,4.875978,0.635176,0.174657,-0.231495,0.000000,0.000000
4.578361626,127,136,-1.212747,-1.346534,-0.560174,-2.247905,0.750888,4.505329,0.947333,0.939556,0.000000,0.000000,0.000000,0.000000,0.000000,0.000000,0.000000,0.000000,0.286713,-6.465917,5.027112,0.523336,0.194366,-0.228190,0.000000,0.000000
4.590177076,128,137,-1.212747,-1.346534,-0.560174,-2.247905,0.750888,4.505329,0.947333,0.939556,0.000000,0.000000,0.000000,0.000000,0.000000,0.000000,0.000000,0.000000,0.169797,-6.040094,5.265137,0.751750,0.119724,-0.208326,0.000000,0.000000
4.601994094,128,137,-1.212747,-1.346534,-0.560174,-2.247905,0.750888,4.505329,0.947333,0.939556,0.000000,0.000000,0.000000,0.000000,0.000000,0.000000,0.000000,0.000000,0.119704,-6.528784,5.060921,0.634924,0.189549,-0.185437,0.000000,0.000000
4.614443081,128,137,-1.212747,-1.346534,-0.560174,-2.247905,0.750888,4.505329,0.947333,0.939556,0.000000,0.000000,0.000000,0.000000,0.000000,0.000000,0.000000,0.000000,0.627610,-6.079689,4.351214,0.490507,0.103630,-0.135349,0.000000,0.000000
4.629319737,129,138,-1.212747,-1.346534,-0.560174,-2.247905,0.750888,4.505329,0.947333,0.939556,0.000000,0.000000,0.000000,0.000000,0.000000,0.000000,0.000000,0.000000,0.211278,-6.529541,4.677177,0.562739,0.149253,0.059854,0.000000,0.000000
4.641137004,129,138,-1.212747,-1.346534,-0.560174,-2.247905,0.750888,4.505329,0.947333,0.939556,0.000000,0.000000,0.000000,0.000000,0.000000,0.000000,0.000000,0.000000,0.407792,-5.970746,4.621017,0.527610,0.114868,-0.100825,0.000000,0.000000
4.653712921,130,139,-1.212747,-1.346534,-0.560174,-2.247905,0.750888,4.505329,0.947333,0.939556,0.000000,0.000000,0.000000,0.000000,0.000000,0.000000,0.000000,0.000000,0.651703,-6.513511,4.490166,0.501455,0.185439,-0.037198,0.000000,0.000000
4.665448943,130,139,-1.212747,-1.346534,-0.560174,-2.247905,0.750888,4.505329,0.947333,0.939556,0.000000,0.000000,0.000000,0.000000,0.000000,0.000000,0.000000,0.000000,0.686350,-6.289951,4.716071,0.582441,0.116107,-0.309621,0.000000,0.000000
4.677041022,130,139,-1.212747,-1.346534,-0.560174,-2.247905,0.750888,4.505329,0.947333,0.939556,0.000000,0.000000,0.000000,0.000000,0.000000,0.000000,0.000000,0.000000,0.384699,-6.176105,4.805720,0.543371,-0.044493,-0.158083,0.000000,0.000000
4.689411321,131,140,-1.212747,-1.346534,-0.560174,-2.247905,0.750888,4.505329,0.947333,0.939556,0.000000,0.000000,0.000000,0.000000,0.000000,0.000000,0.000000,0.000000,-0.031412,-6.368128,4.688139,0.530966,-0.042704,-0.049168,0.000000,0.000000
4.701163755,131,140,-1.212747,-1.346534,-0.560174,-2.247905,0.750888,4.505329,0.947333,0.939556,0.000000,0.000000,0.000000,0.000000,0.000000,0.000000,0.000000,0.000000,0.596101,-6.155913,4.717523,0.655979,-0.047440,-0.306577,0.000000,0.000000
4.713092941,131,140,-1.212747,-1.346534,-0.560174,-2.247905,0.750888,4.505329,0.947333,0.939556,0.000000,0.000000,0.000000,0.000000,0.000000,0.000000,0.000000,0.000000,0.500918,-6.276425,4.422780,0.743204,0.140289,-0.106963,0.000000,0.000000
4.725373951,132,141,-1.212747,-1.346534,-0.560174,-2.247905,0.750888,4.505329,0.947333,0.939556,0.000000,0.000000,0.000000,0.000000,0.000000,0.000000,0.000000,0.000000,0.565531,-6.227396,4.797106,0.558306,0.159467,-0.171614,0.000000,0.000000
4.737225431,132,141,-1.212747,-1.346534,-0.560174,-2.247905,0.750888,4.505329,0.947333,0.939556,0.000000,0.000000,0.000000,0.000000,0.000000,0.000000,0.000000,0.000000,-0.057081,-6.479307,4.914904,0.522417,0.059213,-0.298027,0.000000,0.000000
4.749312292,132,141,-1.212747,-1.346534,-0.560174,-2.247905,0.750888,4.505329,0.947333,0.939556,0.000000,0.000000,0.000000,0.000000,0.000000,0.000000,0.000000,0.000000,0.672284,-6.033059,5.052219,0.706270,0.022876,-0.224614,0.000000,0.000000
4.761086520,133,142,-1.212747,-1.346534,-0.560174,-2.247905,0.750888,4.505329,0.947333,0.939556,0.000000,0.000000,0.000000,0.000000,0.000000,0.000000,0.000000,0.000000,0.164524,-6.378029,5.203245,0.553644,0.077090,-0.187287,0.000000,0.000000
4.773981200,133,142,-1.212747,-1.346534,-0.560174,-2.247905,0.750888,4.505329,0.947333,0.939556,0.000000,0.000000,0.000000,0.000000,0.000000,0.000000,0.000000,0.000000,0.514385,-5.877741,4.709950,0.557613,0.017155,-0.226533,0.000000,0.000000
4.786298125,133,142,-1.212747,-1.346534,-0.560174,-2.247905,0.750888,4.505329,0.947333,0.939556,0.000000,0.000000,0.000000,0.000000,0.000000,0.000000,0.000000,0.000000,0.358209,-5.934261,4.980025,0.499172,0.049716,0.026802,0.000000,0.000000
4.798103868,134,143,-1.212747,-1.346534,-0.560174,-2.247905,0.750888,4.505329,0.947333,0.939556,0.000000,0.000000,0.000000,0.000000,0.000000,0.000000,0.000000,0.000000,-0.007266,-5.908728,4.982560,0.540357,0.167861,0.026996,0.000000,0.000000
4.810464856,134,143,-1.212747,-1.346534,-0.560174,-2.247905,0.750888,4.505329,0.947333,0.939556,0.000000,0.000000,0.000000,0.000000,0.000000,0.000000,0.000000,0.000000,0.072232,-6.518143,4.682975,0.562888,-0.047585,-0.209614,0.000000,0.000000
4.822247311,135,144,-1.212747,-1.346534,-0.560174,-2.247905,0.750888,4.505329,0.947333,0.939556,0.000000,0.000000,0.000000,0.000000,0.000000,0.000000,0.000000,0.000000,0.322446,-5.788068,4.717395,0.672483,0.183364,-0.162710,0.000000,0.000000
4.833963727,135,144,-1.212747,-1.346534,-0.560174,-2.247905,0.750888,4.505329,0.947333,0.939556,0.000000,0.000000,0.000000,0.000000,0.000000,0.000000,0.000000,0.000000,0.488874,-5.855887,5.052947,0.692334,0.172264,-0.108655,0.000000,0.000000
4.846208910,135,144,-1.212747,-1.346534,-0.560174,-2.247905,0.750888,4.505329,0.947333,0.939556,0.000000,0.000000,0.000000,0.000000,0.000000,0.000000,0.000000,0.000000,-0.035457,-6.177959,5.036495,0.546071,0.164751,-0.134606,0.000000,0.000000
4.858064273,136,145,-1.212747,-1.346534,-0.560174,-2.247905,0.750888,4.505329,0.947333,0.939556,0.000000,0.000000,0.000000,0.000000,0.000000,0.000000,0.000000,0.000000,0.069881,-6.292670,5.313094,0.652722,0.086861,-0.044285,0.000000,0.000000
4.870283824,136,145,-1.212747,-1.346534,-0.560174,-2.247905,0.750888,4.505329,0.947333,0.939556,0.000000,0.000000,0.000000,0.000000,0.000000,0.000000,0.000000,0.000000,0.162798,-6.271401,4.899785,0.704153,0.118810,-0.111009,0.000000,0.000000
4.882248521,136,145,-1.212747,-1.346534,-0.560174,-2.247905,0.750888,4.505329,0.947333,0.939556,0.000000,0.000000,0.000000,0.000000,0.000000,0.000000,0.000000,0.000000,0.048771,-6.265518,4.649994,0.406007,0.134981,-0.258797,0.000000,0.000000
4.893929542,137,146,-1.212747,-1.346534,-0.560174,-2.247905,0.750888,4.505329,0.947333,0.939556,0.000000,0.000000,0.000000,0.000000,0.000000,0.000000,0.000000,0.000000,0.397705,-6.552940,4.633603,0.449327,0.107411,-0.215102,0.000000,0.000000
4.906367363,137,146,-1.212747,-1.346534,-0.560174,-2.247905,0.750888,4.505329,0.947333,0.939556,0.000000,0.000000,0.000000,0.000000,0.000000,0.000000,0.000000,0.000000,0.310059,-5.835103,4.795800,0.604563,0.209352,-0.220950,0.000000,0.000000
4.918085048,137,146,-1.212747,-1.346534,-0.560174,-2.247905,0.750888,4.505329,0.947333,0.939556,0.000000,0.000000,0.000000,0.000000,0.000000,0.000000,0.000000,0.000000,0.603443,-6.127273,4.781323,0.599014,0.126530,-0.128218,0.000000,0.000000
4.930760147,138,147,-1.212747,-1.346534,-0.560174,-2.247905,0.750888,4.505329,0.947333,0.939556,0.000000,0.000000,0.000000,0.000000,0.000000,0.000000,0.000000,0.000000,-0.027677,-6.025384,4.996016,0.479714,0.226990,-0.084991,0.000000,0.000000
4.942198811,138,147,-1.212747,-1.346534,-0.560174,-2.247905,0.750888,4.505329,0.947333,0.939556,0.000000,0.000000,0.000000,0.000000,0.000000,0.000000,0.000000,0.000000,0.643339,-6.123405,4.507054,0.663318,0.232892,-0.167756,0.000000,0.000000
4.954171848,139,148,-1.212747,-1.346534,-0.560174,-2.247905,0.750888,4.505329,0.947333,0.939556,0.000000,0.000000,0.000000,0.000000,0.000000,0.000000,0.000000,0.000000,0.731059,-6.269940,4.913490,0.641271,0.078062,-0.170392,0.000000,0.000000
4.965934315,139,148,-1.212747,-1.346534,-0.560174,-2.247905,0.750888,4.505329,0.947333,0.939556,0.000000,0.000000,0.000000,0.000000,0.000000,0.000000,0.000000,0.000000,0.262887,-6.491761,4.793799,0.478891,0.116442,-0.094440,0.000000,0.000000
4.978391043,139,148,-1.212747,-1.346534,-0.560174,-2.247905,0.750888,4.505329,0.947333,0.939556,0.000000,0.000000,0.000000,0.000000,0.000000,0.000000,0.000000,0.000000,0.169545,-6.281322,4.685844,0.507219,0.029670,-0.002016,0.000000,0.000000
